;FLAVOR:Marlin
;TIME:2362
;Filament used: 2.06458m
;Layer height: 0.2
;MINX:158.819
;MINY:87.166
;MINZ:0.3
;MAXX:218.553
;MAXY:159.071
;MAXZ:35.1
;Generated with Cura_SteamEngine 4.12.1
M140 S60
M105
M190 S60
M104 S210
M105
M109 S210
M82 ;absolute extrusion mode
M280 P0 S160 ; release BLTouch alarm (OK to send for Non BLTouch)
M420 Z2 ; set fade leveling at 2mm for BLTouch (OK to send for Non BLTouch)
G28 ; home all
G29 ; probe bed
G92 E0 ;zero the extruded length
G1 X0.0 Y50.0 Z10.0 F3600
; perform wipe and prime
G1 Z0.0 F1000
G1 Z0.2 Y70.0 E9.0 F1000.0 ; prime
G1 Y100.0 E12.5 F1000.0 ; prime
G92 E0 ; zero extruder again
M117 Printing...
G92 E0
G92 E0
G1 F1500 E-6.5
;LAYER_COUNT:176
;LAYER:0
M107
G0 F3000 X190.917 Y118.964 Z0.3
;TYPE:SKIRT
G1 F1500 E0
G1 X191.254 Y118.43 E0.0315
G1 X191.657 Y117.943 E0.06304
G1 X192.118 Y117.51 E0.09459
G1 X192.629 Y117.139 E0.1261
G1 X193.184 Y116.835 E0.15767
G1 X193.927 Y116.557 E0.19725
G1 X194.563 Y116.402 E0.22991
G1 X195.083 Y116.203 E0.25768
G1 X195.615 Y116.04 E0.28544
G1 X195.882 Y115.874 E0.30113
G1 X196.457 Y115.611 E0.33267
G1 X196.817 Y115.489 E0.35164
G1 X197.071 Y115.336 E0.36643
G1 X197.649 Y115.08 E0.39797
G1 X198.011 Y114.962 E0.41696
G1 X198.58 Y114.8 E0.44648
G1 X199.198 Y114.666 E0.47803
G1 X199.827 Y114.61 E0.50953
G1 X200.459 Y114.635 E0.54109
G1 X201.082 Y114.739 E0.5726
G1 X201.755 Y114.947 E0.60774
G1 X201.897 Y115.002 E0.61534
G1 X202.471 Y115.267 E0.64688
G1 X203.007 Y115.602 E0.67842
G1 X203.496 Y116.002 E0.70994
G1 X203.931 Y116.461 E0.74149
G1 X204.43 Y117.18 E0.78515
G1 X204.931 Y118.055 E0.83545
G1 X205.21 Y118.622 E0.86698
G1 X205.415 Y119.22 E0.89852
G1 X205.543 Y119.839 E0.93005
G1 X205.592 Y120.469 E0.96158
G1 X205.548 Y121.2 E0.99811
G1 X205.53 Y121.335 E1.00491
G1 X205.407 Y121.955 E1.03644
G1 X205.207 Y122.554 E1.06795
G1 X204.933 Y123.124 E1.0995
G1 X204.589 Y123.654 E1.13103
G1 X203.987 Y124.328 E1.17611
G1 X203.546 Y124.74 E1.20622
G1 X203.058 Y125.141 E1.23773
G1 X202.523 Y125.478 E1.26928
G1 X202.499 Y125.495 E1.27075
G1 X202.007 Y125.892 E1.30229
G1 X201.468 Y126.223 E1.33384
G1 X201.093 Y126.569 E1.3593
G1 X200.656 Y126.929 E1.38755
G1 X200.174 Y127.438 E1.42252
G1 X199.69 Y127.845 E1.45407
G1 X199.159 Y128.188 E1.48561
G1 X198.589 Y128.461 E1.51714
G1 X197.989 Y128.66 E1.54867
G1 X197.369 Y128.782 E1.5802
G1 X196.738 Y128.824 E1.61175
G1 X196.107 Y128.786 E1.64329
G1 X195.486 Y128.67 E1.67481
G1 X194.884 Y128.475 E1.70638
G1 X194.312 Y128.207 E1.73789
G1 X193.778 Y127.868 E1.76945
G1 X193.292 Y127.464 E1.80098
G1 X192.86 Y127.003 E1.8325
G1 X192.386 Y126.318 E1.87405
G1 X191.594 Y124.94 E1.95335
G1 X191.5 Y124.766 E1.96322
G1 X191.158 Y124.191 E1.99659
G1 X190.943 Y123.811 E2.01838
G1 X190.669 Y123.242 E2.04988
G1 X190.469 Y122.642 E2.08144
G1 X190.346 Y122.022 E2.11297
G1 X190.303 Y121.391 E2.14453
G1 X190.34 Y120.76 E2.17606
G1 X190.455 Y120.139 E2.20757
G1 X190.649 Y119.537 E2.23912
G1 X190.917 Y118.964 E2.27068
G0 F3000 X191.366 Y118.984
G1 F1500 X191.713 Y118.487 E2.30092
G1 X192.123 Y118.04 E2.33119
G1 X192.588 Y117.651 E2.36143
G1 X193.1 Y117.326 E2.39169
G1 X193.65 Y117.071 E2.42193
G1 X194.32 Y116.861 E2.45696
G1 X194.692 Y116.775 E2.47601
G1 X195.201 Y116.586 E2.5031
G1 X195.777 Y116.409 E2.53316
G1 X196.115 Y116.203 E2.55291
G1 X196.949 Y115.867 E2.59777
G1 X197.3 Y115.668 E2.6179
G1 X198.12 Y115.347 E2.66183
G1 X198.689 Y115.185 E2.69135
G1 X199.282 Y115.058 E2.7216
G1 X199.887 Y115.009 E2.75188
G1 X200.492 Y115.041 E2.78211
G1 X201.088 Y115.152 E2.81236
G1 X201.61 Y115.32 E2.83971
G1 X201.752 Y115.375 E2.84731
G1 X202.302 Y115.63 E2.87756
G1 X202.813 Y115.956 E2.9078
G1 X203.277 Y116.346 E2.93804
G1 X203.686 Y116.794 E2.9683
G1 X204.083 Y117.378 E3.00353
G1 X204.584 Y118.253 E3.05384
G1 X204.85 Y118.798 E3.08409
G1 X205.042 Y119.373 E3.11434
G1 X205.157 Y119.969 E3.14462
G1 X205.192 Y120.574 E3.17485
G1 X205.152 Y121.147 E3.20351
G1 X205.134 Y121.282 E3.2103
G1 X205.014 Y121.876 E3.24054
G1 X204.817 Y122.45 E3.27081
G1 X204.547 Y122.993 E3.30107
G1 X204.208 Y123.495 E3.33129
G1 X203.714 Y124.035 E3.3678
G1 X203.273 Y124.447 E3.39791
G1 X202.804 Y124.831 E3.42815
G1 X202.28 Y125.154 E3.45886
G1 X202.229 Y125.2 E3.46229
G1 X201.756 Y125.579 E3.49253
G1 X201.237 Y125.893 E3.52279
G1 X201.222 Y125.899 E3.5236
G1 X200.819 Y126.277 E3.55116
G1 X200.386 Y126.632 E3.5791
G1 X199.898 Y127.149 E3.61457
G1 X199.433 Y127.538 E3.64481
G1 X198.921 Y127.863 E3.67507
G1 X198.37 Y128.117 E3.70534
G1 X197.791 Y128.297 E3.73559
G1 X197.194 Y128.399 E3.7658
G1 X196.588 Y128.422 E3.79606
G1 X195.984 Y128.365 E3.82633
G1 X195.393 Y128.229 E3.85658
G1 X194.826 Y128.016 E3.8868
G1 X194.291 Y127.731 E3.91704
G1 X193.798 Y127.378 E3.94729
G1 X193.356 Y126.962 E3.97758
G1 X192.972 Y126.493 E4.00782
G1 X192.732 Y126.119 E4.02999
G1 X192.009 Y124.863 E4.10229
G1 X191.853 Y124.577 E4.11854
G1 X191.501 Y123.986 E4.15286
G1 X191.292 Y123.616 E4.17406
G1 X191.03 Y123.069 E4.20432
G1 X190.843 Y122.492 E4.23458
G1 X190.734 Y121.896 E4.26481
G1 X190.704 Y121.29 E4.29508
G1 X190.753 Y120.686 E4.32531
G1 X190.882 Y120.093 E4.35559
G1 X191.088 Y119.523 E4.38583
G1 X191.366 Y118.984 E4.41608
G0 F3000 X191.53 Y119.519
G1 F1500 X191.82 Y119.017 E4.44501
G1 X192.176 Y118.56 E4.47391
G1 X192.591 Y118.157 E4.50277
G1 X193.058 Y117.814 E4.53168
G1 X193.568 Y117.539 E4.56058
G1 X194.147 Y117.326 E4.59136
G1 X194.819 Y117.164 E4.62585
G1 X195.318 Y116.968 E4.6526
G1 X195.937 Y116.778 E4.6849
G1 X196.346 Y116.534 E4.70866
G1 X197.061 Y116.251 E4.74702
G1 X197.527 Y116.002 E4.77338
G1 X198.23 Y115.732 E4.81096
G1 X198.799 Y115.57 E4.84047
G1 X199.366 Y115.45 E4.86939
G1 X199.944 Y115.409 E4.89829
G1 X200.522 Y115.448 E4.9272
G1 X201.089 Y115.567 E4.9561
G1 X201.608 Y115.748 E4.98352
G1 X202.132 Y115.994 E5.0124
G1 X202.618 Y116.309 E5.0413
G1 X203.056 Y116.689 E5.07023
G1 X203.437 Y117.125 E5.09911
G1 X203.736 Y117.577 E5.12615
G1 X204.237 Y118.452 E5.17645
G1 X204.489 Y118.973 E5.20533
G1 X204.668 Y119.525 E5.23428
G1 X204.768 Y120.095 E5.26315
G1 X204.79 Y120.674 E5.29206
G1 X204.737 Y121.229 E5.31987
G1 X204.621 Y121.797 E5.3488
G1 X204.428 Y122.343 E5.37769
G1 X204.162 Y122.857 E5.40656
G1 X203.827 Y123.33 E5.43548
G1 X203.441 Y123.743 E5.46368
G1 X203 Y124.155 E5.49379
G1 X202.551 Y124.52 E5.52266
G1 X202.049 Y124.822 E5.55189
G1 X201.959 Y124.905 E5.558
G1 X201.506 Y125.266 E5.58689
G1 X201.007 Y125.561 E5.61581
G1 X200.99 Y125.568 E5.61673
G1 X200.545 Y125.985 E5.64716
G1 X200.116 Y126.336 E5.67481
G1 X199.621 Y126.86 E5.71077
G1 X199.176 Y127.23 E5.73965
G1 X198.684 Y127.536 E5.76855
G1 X198.154 Y127.771 E5.79748
G1 X197.597 Y127.931 E5.82639
G1 X197.024 Y128.013 E5.85527
G1 X196.445 Y128.015 E5.88415
G1 X195.871 Y127.937 E5.91305
G1 X195.313 Y127.782 E5.94195
G1 X194.781 Y127.55 E5.9709
G1 X194.287 Y127.248 E5.99979
G1 X193.839 Y126.881 E6.02868
G1 X193.446 Y126.456 E6.05756
G1 X193.079 Y125.919 E6.09001
G1 X192.298 Y124.56 E6.16821
G1 X192.196 Y124.37 E6.17897
G1 X191.792 Y123.689 E6.21847
G1 X191.641 Y123.42 E6.23386
G1 X191.393 Y122.896 E6.26279
G1 X191.219 Y122.344 E6.29166
G1 X191.123 Y121.772 E6.3206
G1 X191.106 Y121.193 E6.3495
G1 X191.17 Y120.617 E6.37841
G1 X191.312 Y120.056 E6.40728
G1 X191.53 Y119.519 E6.4362
G0 F3000 X191.976 Y119.528
G1 F1500 X192.277 Y119.066 E6.46371
G1 X192.641 Y118.652 E6.49121
G1 X193.061 Y118.296 E6.51868
G1 X193.528 Y118.004 E6.54616
G1 X194.257 Y117.711 E6.58535
G1 X194.962 Y117.542 E6.62152
G1 X195.435 Y117.35 E6.64699
G1 X196.095 Y117.147 E6.68144
G1 X196.575 Y116.867 E6.70916
G1 X197.174 Y116.635 E6.74121
G1 X197.284 Y116.603 E6.74693
G1 X197.752 Y116.337 E6.77378
G1 X198.339 Y116.116 E6.80508
G1 X198.908 Y115.954 E6.83459
G1 X199.448 Y115.842 E6.86211
G1 X199.998 Y115.809 E6.88959
G1 X200.547 Y115.856 E6.91708
G1 X201.321 Y116.066 E6.9571
G1 X201.463 Y116.121 E6.96469
G1 X201.962 Y116.356 E6.99221
G1 X202.42 Y116.662 E7.01969
G1 X202.83 Y117.03 E7.04718
G1 X203.182 Y117.454 E7.07467
G1 X203.389 Y117.776 E7.09377
G1 X203.89 Y118.651 E7.14407
G1 X204.128 Y119.148 E7.17156
G1 X204.292 Y119.674 E7.19905
G1 X204.378 Y120.218 E7.22653
G1 X204.359 Y121.041 E7.2676
G1 X204.341 Y121.176 E7.27439
G1 X204.228 Y121.716 E7.30192
G1 X204.039 Y122.233 E7.32938
G1 X203.777 Y122.718 E7.35688
G1 X203.448 Y123.16 E7.38437
G1 X203.168 Y123.451 E7.40452
G1 X202.727 Y123.863 E7.43463
G1 X202.298 Y124.209 E7.46212
G1 X201.819 Y124.491 E7.48986
G1 X201.689 Y124.61 E7.49865
G1 X201.257 Y124.952 E7.52614
G1 X200.779 Y125.227 E7.55365
G1 X200.763 Y125.233 E7.5545
G1 X200.272 Y125.694 E7.5881
G1 X199.849 Y126.036 E7.61524
G1 X199.345 Y126.571 E7.65191
G1 X198.92 Y126.922 E7.67941
G1 X198.449 Y127.207 E7.70688
G1 X197.941 Y127.422 E7.7344
G1 X197.408 Y127.561 E7.76188
G1 X196.86 Y127.621 E7.78938
G1 X196.31 Y127.602 E7.81684
G1 X195.768 Y127.503 E7.84433
G1 X195.246 Y127.327 E7.87181
G1 X194.755 Y127.077 E7.8993
G1 X194.305 Y126.759 E7.92679
G1 X193.906 Y126.379 E7.95428
G1 X193.426 Y125.72 E7.99495
G1 X192.703 Y124.464 E8.06725
G1 X192.555 Y124.192 E8.0827
G1 X192.14 Y123.493 E8.12326
G1 X191.989 Y123.224 E8.13865
G1 X191.755 Y122.725 E8.16615
G1 X191.596 Y122.198 E8.19361
G1 X191.514 Y121.653 E8.22111
G1 X191.512 Y121.102 E8.24859
G1 X191.59 Y120.557 E8.27606
G1 X191.746 Y120.028 E8.30358
G1 X191.976 Y119.528 E8.33104
G0 F3000 X192.427 Y119.551
G1 F1500 X192.738 Y119.132 E8.35707
G1 X193.109 Y118.767 E8.38303
G1 X193.532 Y118.462 E8.40905
G1 X193.996 Y118.225 E8.43504
G1 X194.65 Y118.014 E8.46933
G1 X195.125 Y117.914 E8.49355
G1 X195.553 Y117.733 E8.51673
G1 X196.286 Y117.508 E8.55498
G1 X196.348 Y117.459 E8.55893
G1 X196.802 Y117.202 E8.58495
G1 X197.287 Y117.019 E8.61082
G1 X197.518 Y116.926 E8.62324
G1 X197.975 Y116.675 E8.64925
G1 X198.449 Y116.501 E8.67444
G1 X199.018 Y116.339 E8.70396
G1 X199.529 Y116.235 E8.72997
G1 X200.049 Y116.21 E8.75595
G1 X200.567 Y116.266 E8.78194
G1 X201.177 Y116.439 E8.81357
G1 X201.319 Y116.494 E8.82117
G1 X201.789 Y116.718 E8.84715
G1 X202.219 Y117.013 E8.87316
G1 X202.6 Y117.369 E8.89918
G1 X203.042 Y117.975 E8.9366
G1 X203.543 Y118.85 E8.9869
G1 X203.766 Y119.32 E9.01286
G1 X203.915 Y119.82 E9.03889
G1 X203.986 Y120.336 E9.06487
G1 X203.962 Y120.988 E9.09742
G1 X203.944 Y121.123 E9.10422
G1 X203.836 Y121.633 E9.13022
G1 X203.651 Y122.12 E9.15622
G1 X203.394 Y122.574 E9.18224
G1 X202.895 Y123.158 E9.22057
G1 X202.454 Y123.57 E9.25068
G1 X202.047 Y123.896 E9.27669
G1 X201.591 Y124.158 E9.30293
G1 X201.419 Y124.315 E9.31455
G1 X201.008 Y124.636 E9.34056
G1 X200.554 Y124.891 E9.36654
G1 X200.535 Y124.898 E9.36755
G1 X199.998 Y125.402 E9.4043
G1 X199.585 Y125.732 E9.43067
G1 X199.068 Y126.282 E9.46833
G1 X198.665 Y126.612 E9.49432
G1 X198.216 Y126.877 E9.52033
G1 X197.732 Y127.07 E9.54632
G1 X197.224 Y127.186 E9.57232
G1 X196.704 Y127.224 E9.59833
G1 X196.185 Y127.182 E9.62431
G1 X195.678 Y127.061 E9.65031
G1 X195.196 Y126.864 E9.67629
G1 X194.749 Y126.595 E9.70232
G1 X194.349 Y126.262 E9.72829
G1 X194.004 Y125.871 E9.7543
G1 X193.772 Y125.52 E9.77529
G1 X193.049 Y124.264 E9.84759
G1 X192.902 Y123.994 E9.86293
G1 X192.489 Y123.297 E9.90335
G1 X192.338 Y123.028 E9.91874
G1 X192.119 Y122.556 E9.9447
G1 X191.974 Y122.055 E9.97072
G1 X191.907 Y121.538 E9.99673
G1 X191.921 Y121.017 E10.02273
G1 X192.013 Y120.504 E10.04874
G1 X192.184 Y120.012 E10.07472
G1 X192.427 Y119.551 E10.10072
G0 F3000 X192.626 Y120.009
G1 F1500 X192.882 Y119.592 E10.12513
G1 X193.203 Y119.222 E10.14957
G1 X193.579 Y118.909 E10.17398
G1 X194.001 Y118.661 E10.1984
G1 X194.477 Y118.48 E10.22381
G1 X195.186 Y118.31 E10.26018
G1 X195.204 Y118.308 E10.26108
G1 X195.67 Y118.115 E10.28625
G1 X196.477 Y117.867 E10.32837
G1 X197.025 Y117.54 E10.3602
G1 X197.654 Y117.327 E10.39334
G1 X198.194 Y117.015 E10.42445
G1 X198.559 Y116.886 E10.44376
G1 X199.128 Y116.724 E10.47328
G1 X199.608 Y116.628 E10.4977
G1 X200.097 Y116.613 E10.52211
G1 X200.582 Y116.677 E10.54652
G1 X201.175 Y116.867 E10.57758
G1 X201.615 Y117.08 E10.60197
G1 X202.015 Y117.362 E10.62639
G1 X202.364 Y117.706 E10.65083
G1 X202.694 Y118.173 E10.67936
G1 X203.195 Y119.048 E10.72967
G1 X203.403 Y119.492 E10.75413
G1 X203.536 Y119.963 E10.77855
G1 X203.591 Y120.449 E10.80295
G1 X203.548 Y121.07 E10.834
G1 X203.444 Y121.549 E10.85846
G1 X203.263 Y122.004 E10.88289
G1 X203.011 Y122.423 E10.90728
G1 X202.622 Y122.866 E10.93669
G1 X202.181 Y123.278 E10.9668
G1 X201.797 Y123.582 E10.99124
G1 X201.369 Y123.819 E11.01565
G1 X200.762 Y124.32 E11.05491
G1 X200.309 Y124.561 E11.08051
G1 X199.724 Y125.11 E11.12054
G1 X199.326 Y125.423 E11.1458
G1 X198.792 Y125.993 E11.18476
G1 X198.412 Y126.301 E11.20917
G1 X197.986 Y126.543 E11.23361
G1 X197.527 Y126.713 E11.25803
G1 X197.047 Y126.806 E11.28242
G1 X196.558 Y126.82 E11.30683
G1 X196.073 Y126.754 E11.33125
G1 X195.605 Y126.609 E11.35569
G1 X195.167 Y126.391 E11.3801
G1 X194.77 Y126.105 E11.40451
G1 X194.425 Y125.757 E11.42896
G1 X194.119 Y125.321 E11.45554
G1 X193.355 Y123.991 E11.53206
G1 X193.251 Y123.798 E11.543
G1 X192.876 Y123.168 E11.57957
G1 X192.483 Y122.388 E11.62315
G1 X192.354 Y121.915 E11.64761
G1 X192.304 Y121.428 E11.67203
G1 X192.333 Y120.94 E11.69642
G1 X192.442 Y120.462 E11.72088
G1 X192.626 Y120.009 E11.74527
G0 F3000 X193.075 Y120.024
G1 F1500 X193.343 Y119.656 E11.76799
G1 X193.671 Y119.34 E11.79071
G1 X194.049 Y119.086 E11.81343
G1 X194.588 Y118.864 E11.84251
G1 X195.239 Y118.706 E11.87593
G1 X195.788 Y118.498 E11.90522
G1 X196.663 Y118.229 E11.95089
G1 X196.842 Y118.091 E11.96217
G1 X197.512 Y117.786 E11.9989
G1 X197.837 Y117.691 E12.01579
G1 X198.004 Y117.565 E12.02623
G1 X198.668 Y117.27 E12.06248
G1 X199.237 Y117.108 E12.09199
G1 X199.685 Y117.022 E12.11475
G1 X200.14 Y117.016 E12.13745
G1 X200.59 Y117.089 E12.1602
G1 X201.03 Y117.24 E12.18341
G1 X201.439 Y117.441 E12.20614
G1 X201.806 Y117.71 E12.22884
G1 X202.121 Y118.04 E12.2516
G1 X202.347 Y118.372 E12.27164
G1 X202.848 Y119.247 E12.32194
G1 X203.039 Y119.661 E12.34469
G1 X203.155 Y120.102 E12.36744
G1 X203.192 Y120.556 E12.39017
G1 X203.151 Y121.018 E12.41331
G1 X203.052 Y121.462 E12.436
G1 X202.876 Y121.883 E12.45877
G1 X202.63 Y122.266 E12.48148
G1 X202.349 Y122.574 E12.50228
G1 X201.908 Y122.986 E12.53239
G1 X201.549 Y123.267 E12.55513
G1 X201.192 Y123.438 E12.57488
G1 X200.517 Y124.002 E12.61876
G1 X200.09 Y124.219 E12.64266
G1 X199.451 Y124.818 E12.68636
G1 X199.053 Y125.131 E12.71162
G1 X198.516 Y125.703 E12.75076
G1 X198.16 Y125.988 E12.77351
G1 X197.76 Y126.206 E12.79624
G1 X197.328 Y126.352 E12.81899
G1 X196.878 Y126.419 E12.84169
G1 X196.422 Y126.407 E12.86444
G1 X195.976 Y126.315 E12.88716
G1 X195.552 Y126.147 E12.90992
G1 X195.164 Y125.908 E12.93265
G1 X194.825 Y125.605 E12.95534
G1 X194.466 Y125.121 E12.9854
G1 X193.707 Y123.801 E13.06137
G1 X193.594 Y123.592 E13.07322
G1 X193.187 Y122.906 E13.11301
G1 X192.848 Y122.221 E13.15114
G1 X192.736 Y121.78 E13.17384
G1 X192.703 Y121.325 E13.1966
G1 X192.75 Y120.872 E13.21933
G1 X192.875 Y120.434 E13.24205
G1 X193.075 Y120.024 E13.26481
G0 F3000 X193.315 Y120.422
G1 F1500 X193.529 Y120.062 E13.2857
G1 X193.808 Y119.75 E13.30659
G1 X194.142 Y119.496 E13.32752
G1 X194.698 Y119.249 E13.35787
G1 X195.292 Y119.103 E13.38839
G1 X195.468 Y119.079 E13.39725
G1 X195.905 Y118.88 E13.42121
G1 X196.849 Y118.59 E13.47048
G1 X197.086 Y118.41 E13.48532
G1 X197.624 Y118.17 E13.51471
G1 X198.019 Y118.054 E13.53525
G1 X198.245 Y117.887 E13.54927
G1 X198.778 Y117.655 E13.57827
G1 X199.347 Y117.493 E13.60779
G1 X199.759 Y117.417 E13.62869
G1 X200.178 Y117.421 E13.6496
G1 X200.744 Y117.558 E13.67865
G1 X201.26 Y117.8 E13.70708
G1 X201.592 Y118.056 E13.728
G1 X202 Y118.571 E13.76078
G1 X202.501 Y119.446 E13.81108
G1 X202.674 Y119.828 E13.832
G1 X202.771 Y120.235 E13.85288
G1 X202.773 Y120.83 E13.88256
G1 X202.66 Y121.373 E13.91023
G1 X202.49 Y121.756 E13.93114
G1 X202.076 Y122.282 E13.96453
G1 X201.635 Y122.694 E13.99464
G1 X201.303 Y122.949 E14.01553
G1 X200.954 Y123.113 E14.03477
G1 X200.274 Y123.682 E14.079
G1 X199.899 Y123.85 E14.0995
G1 X199.177 Y124.527 E14.14888
G1 X198.729 Y124.896 E14.17784
