;FLAVOR:Marlin
;TIME:2661
;Filament used: 2.15257m
;Layer height: 0.2
;MINX:153.604
;MINY:67.419
;MINZ:0.3
;MAXX:196.478
;MAXY:145.229
;MAXZ:36.9
;Generated with Cura_SteamEngine 4.12.1
M140 S60
M105
M190 S60
M104 S210
M105
M109 S210
M82 ;absolute extrusion mode
M280 P0 S160 ; release BLTouch alarm (OK to send for Non BLTouch)
M420 Z2 ; set fade leveling at 2mm for BLTouch (OK to send for Non BLTouch)
G28 ; home all
G29 ; probe bed
G92 E0 ;zero the extruded length
G1 X0.0 Y50.0 Z10.0 F3600
; perform wipe and prime
G1 Z0.0 F1000
G1 Z0.2 Y70.0 E9.0 F1000.0 ; prime
G1 Y100.0 E12.5 F1000.0 ; prime
G92 E0 ; zero extruder again
M117 Printing...
G92 E0
G92 E0
G1 F1500 E-6.5
;LAYER_COUNT:186
;LAYER:0
M107
G0 F3000 X154.227 Y104.155 Z0.3
;TYPE:SKIRT
G1 F1500 E0
G1 X154.717 Y103.552 E0.03876
G1 X189.744 Y68.525 E2.51011
G1 X190.161 Y68.165 E2.53759
G1 X190.625 Y67.868 E2.56508
G1 X191.128 Y67.642 E2.59259
G1 X191.658 Y67.491 E2.62008
G1 X192.204 Y67.419 E2.64756
G1 X192.755 Y67.426 E2.67505
G1 X193.299 Y67.512 E2.70253
G1 X193.894 Y67.705 E2.73374
G1 X194.141 Y67.808 E2.74709
G1 X194.632 Y68.056 E2.77453
G1 X195.083 Y68.373 E2.80203
G1 X195.483 Y68.752 E2.82952
G1 X195.825 Y69.184 E2.85701
G1 X196.1 Y69.662 E2.88453
G1 X196.303 Y70.174 E2.912
G1 X196.43 Y70.71 E2.93949
G1 X196.478 Y71.315 E2.96976
G1 X196.478 Y87.421 E3.7733
G1 X196.438 Y87.971 E3.80081
G1 X196.319 Y88.509 E3.8283
G1 X196.156 Y88.955 E3.85199
G1 X195.907 Y89.446 E3.87945
G1 X195.591 Y89.897 E3.90693
G1 X195.335 Y90.18 E3.92597
G1 X179.19 Y106.322 E5.06498
G1 X195.335 Y122.464 E6.20399
G1 X195.695 Y122.881 E6.23147
G1 X195.991 Y123.345 E6.25893
G1 X196.186 Y123.761 E6.28185
G1 X196.36 Y124.284 E6.30935
G1 X196.457 Y124.826 E6.33682
G1 X196.478 Y125.223 E6.35666
G1 X196.478 Y141.329 E7.16019
G1 X196.438 Y141.879 E7.1877
G1 X196.319 Y142.417 E7.21519
G1 X196.123 Y142.932 E7.24268
G1 X195.855 Y143.413 E7.27015
G1 X195.521 Y143.851 E7.29763
G1 X195.126 Y144.235 E7.32512
G1 X194.68 Y144.559 E7.35262
G1 X194.141 Y144.836 E7.38285
G1 X193.894 Y144.939 E7.3962
G1 X193.371 Y145.114 E7.42372
G1 X192.829 Y145.211 E7.45119
G1 X192.278 Y145.229 E7.47869
G1 X191.73 Y145.167 E7.50621
G1 X191.198 Y145.026 E7.53366
G1 X190.691 Y144.81 E7.56116
G1 X190.221 Y144.523 E7.58863
G1 X189.744 Y144.119 E7.61982
G1 X154.717 Y109.092 E10.09116
G1 X154.357 Y108.675 E10.11865
G1 X154.06 Y108.211 E10.14613
G1 X153.834 Y107.708 E10.17364
G1 X153.683 Y107.178 E10.20114
G1 X153.604 Y106.405 E10.2399
G1 X153.604 Y106.239 E10.24819
G1 X153.644 Y105.689 E10.2757
G1 X153.763 Y105.151 E10.30319
G1 X153.959 Y104.636 E10.33068
G1 X154.227 Y104.155 E10.35815
G0 F3000 X154.624 Y104.281
G1 F1500 X155 Y103.835 E10.38725
G1 X190.027 Y68.808 E12.8586
G1 X190.423 Y68.469 E12.8846
G1 X190.865 Y68.194 E12.91057
G1 X191.345 Y67.99 E12.9366
G1 X191.85 Y67.862 E12.96259
G1 X192.369 Y67.813 E12.98859
G1 X192.889 Y67.843 E13.01458
G1 X193.399 Y67.953 E13.04061
G1 X193.987 Y68.177 E13.072
G1 X194.451 Y68.414 E13.098
G1 X194.873 Y68.719 E13.12397
G1 X195.244 Y69.085 E13.14997
G1 X195.555 Y69.503 E13.17597
G1 X195.798 Y69.964 E13.20196
G1 X195.968 Y70.457 E13.22798
G1 X196.06 Y70.97 E13.25398
G1 X196.078 Y71.315 E13.27122
G1 X196.078 Y87.421 E14.07475
G1 X196.038 Y87.941 E14.10077
G1 X195.919 Y88.448 E14.12675
G1 X195.786 Y88.801 E14.14557
G1 X195.55 Y89.265 E14.17154
G1 X195.245 Y89.688 E14.19756
G1 X195.052 Y89.897 E14.21175
G1 X178.624 Y106.322 E15.37073
G1 X195.052 Y122.747 E16.52971
G1 X195.391 Y123.142 E16.55568
G1 X195.666 Y123.585 E16.58169
G1 X195.816 Y123.915 E16.59978
G1 X195.979 Y124.41 E16.62578
G1 X196.065 Y124.924 E16.65178
G1 X196.078 Y125.223 E16.66671
G1 X196.078 Y141.329 E17.47024
G1 X196.038 Y141.849 E17.49626
G1 X195.919 Y142.356 E17.52224
G1 X195.724 Y142.839 E17.54823
G1 X195.458 Y143.287 E17.57422
G1 X195.126 Y143.689 E17.60023
G1 X194.736 Y144.035 E17.62624
G1 X194.298 Y144.318 E17.65226
G1 X193.74 Y144.57 E17.68281
G1 X193.245 Y144.733 E17.70881
G1 X192.731 Y144.819 E17.73481
G1 X192.209 Y144.825 E17.76085
G1 X191.694 Y144.751 E17.78681
G1 X191.195 Y144.599 E17.81283
G1 X190.725 Y144.373 E17.83885
G1 X190.296 Y144.078 E17.86483
G1 X190.027 Y143.836 E17.88288
G1 X155 Y108.809 E20.35422
G1 X154.661 Y108.413 E20.38023
G1 X154.386 Y107.971 E20.4062
G1 X154.182 Y107.491 E20.43222
G1 X154.054 Y106.986 E20.45821
G1 X154.004 Y106.405 E20.48731
G1 X154.004 Y106.239 E20.49559
G1 X154.044 Y105.719 E20.52161
G1 X154.163 Y105.212 E20.54759
G1 X154.358 Y104.729 E20.57358
G1 X154.624 Y104.281 E20.59957
G0 F3000 X155.022 Y104.415
G1 F1500 X155.283 Y104.118 E20.61929
G1 X190.31 Y69.091 E23.09064
G1 X190.683 Y68.774 E23.11506
G1 X191.103 Y68.522 E23.1395
G1 X191.558 Y68.342 E23.16391
G1 X192.036 Y68.238 E23.18831
G1 X192.525 Y68.213 E23.21274
G1 X193.011 Y68.269 E23.23715
G1 X193.586 Y68.443 E23.26712
G1 X194.268 Y68.771 E23.30488
G1 X194.66 Y69.063 E23.32926
G1 X195 Y69.415 E23.35368
G1 X195.278 Y69.818 E23.3781
G1 X195.487 Y70.261 E23.40254
G1 X195.621 Y70.732 E23.42697
G1 X195.678 Y71.315 E23.4562
G1 X195.678 Y87.421 E24.25973
G1 X195.638 Y87.909 E24.28416
G1 X195.447 Y88.575 E24.31872
G1 X195.193 Y89.082 E24.34701
G1 X194.769 Y89.614 E24.38095
G1 X178.058 Y106.322 E25.5599
G1 X194.769 Y123.03 E26.73885
G1 X195.086 Y123.403 E26.76327
G1 X195.417 Y123.997 E26.79719
G1 X195.598 Y124.535 E26.82551
G1 X195.678 Y125.223 E26.86007
G1 X195.678 Y141.329 E27.6636
G1 X195.638 Y141.817 E27.68803
G1 X195.519 Y142.292 E27.71246
G1 X195.325 Y142.741 E27.73686
G1 X195.06 Y143.153 E27.7613
G1 X194.732 Y143.516 E27.78571
G1 X194.349 Y143.821 E27.81013
G1 X193.833 Y144.098 E27.83935
G1 X193.12 Y144.352 E27.87711
G1 X192.636 Y144.425 E27.90153
G1 X192.147 Y144.418 E27.92593
G1 X191.665 Y144.332 E27.95036
G1 X191.203 Y144.169 E27.9748
G1 X190.774 Y143.933 E27.99923
G1 X190.31 Y143.553 E28.02915
G1 X155.283 Y108.526 E30.50049
G1 X154.966 Y108.153 E30.52492
G1 X154.714 Y107.733 E30.54935
G1 X154.534 Y107.278 E30.57376
G1 X154.43 Y106.8 E30.59817
G1 X154.404 Y106.239 E30.62619
G1 X154.444 Y105.751 E30.65062
G1 X154.563 Y105.276 E30.67505
G1 X154.757 Y104.827 E30.69945
G1 X155.022 Y104.415 E30.72389
G0 F3000 X155.156 Y104.933
G1 F1500 X155.566 Y104.401 E30.7574
G1 X190.593 Y69.374 E33.22874
G1 X190.942 Y69.081 E33.25147
G1 X191.337 Y68.854 E33.2742
G1 X191.765 Y68.699 E33.29691
G1 X192.214 Y68.621 E33.31965
G1 X192.67 Y68.623 E33.3424
G1 X193.118 Y68.704 E33.36511
G1 X193.679 Y68.915 E33.39502
G1 X194.082 Y69.127 E33.41773
G1 X194.443 Y69.406 E33.4405
G1 X194.749 Y69.743 E33.46321
G1 X194.992 Y70.129 E33.48596
G1 X195.163 Y70.551 E33.50868
G1 X195.258 Y70.996 E33.53138
G1 X195.278 Y71.315 E33.54733
G1 X195.278 Y87.421 E34.35086
G1 X195.238 Y87.875 E34.3736
G1 X195.078 Y88.421 E34.40198
G1 X194.837 Y88.897 E34.4286
G1 X194.486 Y89.332 E34.45649
G1 X177.493 Y106.322 E35.65533
G1 X194.486 Y123.312 E36.85417
G1 X194.779 Y123.662 E36.87694
G1 X195.048 Y124.151 E36.90479
G1 X195.216 Y124.657 E36.93139
G1 X195.278 Y125.223 E36.95979
G1 X195.278 Y141.329 E37.76332
G1 X195.238 Y141.783 E37.78606
G1 X195.12 Y142.223 E37.80879
G1 X194.926 Y142.635 E37.83151
G1 X194.663 Y143.008 E37.85428
G1 X194.34 Y143.329 E37.877
G1 X193.965 Y143.588 E37.89973
G1 X193.432 Y143.832 E37.92898
G1 X192.997 Y143.97 E37.95175
G1 X192.546 Y144.029 E37.97444
G1 X192.091 Y144.01 E37.99716
G1 X191.646 Y143.911 E38.0199
G1 X191.225 Y143.735 E38.04267
G1 X190.842 Y143.49 E38.06535
G1 X190.593 Y143.27 E38.08193
G1 X155.566 Y108.243 E40.55327
G1 X155.273 Y107.894 E40.57601
G1 X155.046 Y107.499 E40.59874
G1 X154.891 Y107.071 E40.62145
G1 X154.804 Y106.405 E40.65496
G1 X154.844 Y105.785 E40.68595
G1 X154.962 Y105.345 E40.70868
G1 X155.156 Y104.933 E40.7314
G0 F3000 X155.555 Y105.048
G1 F1500 X155.848 Y104.683 E40.75475
G1 X190.875 Y69.656 E43.22609
G1 X191.199 Y69.39 E43.24701
G1 X191.566 Y69.189 E43.26788
G1 X191.966 Y69.062 E43.28882
G1 X192.382 Y69.013 E43.30972
G1 X192.8 Y69.043 E43.33063
G1 X193.525 Y69.284 E43.36874
G1 X193.894 Y69.482 E43.38964
G1 X194.22 Y69.746 E43.41057
G1 X194.489 Y70.067 E43.43146
G1 X194.693 Y70.433 E43.45236
G1 X194.824 Y70.831 E43.47327
G1 X194.878 Y71.315 E43.49757
G1 X194.878 Y87.421 E44.3011
G1 X194.838 Y87.838 E44.322
G1 X194.679 Y88.339 E44.34822
G1 X194.481 Y88.709 E44.36916
G1 X194.204 Y89.049 E44.39104
G1 X176.928 Y106.322 E45.60985
G1 X194.204 Y123.595 E46.82865
G1 X194.47 Y123.918 E46.84953
G1 X194.709 Y124.377 E46.87535
G1 X194.832 Y124.777 E46.89623
G1 X194.878 Y125.223 E46.9186
G1 X194.878 Y141.329 E47.72213
G1 X194.838 Y141.746 E47.74303
G1 X194.72 Y142.148 E47.76393
G1 X194.527 Y142.52 E47.78484
G1 X194.268 Y142.849 E47.80573
G1 X193.951 Y143.123 E47.82663
G1 X193.278 Y143.463 E47.86425
G1 X192.877 Y143.586 E47.88517
G1 X192.461 Y143.632 E47.90606
G1 X192.043 Y143.598 E47.92698
G1 X191.64 Y143.485 E47.94786
G1 X191.265 Y143.297 E47.96879
G1 X190.875 Y142.988 E47.99361
G1 X155.848 Y107.961 E50.46496
G1 X155.582 Y107.637 E50.48587
G1 X155.381 Y107.27 E50.50675
G1 X155.254 Y106.87 E50.52768
G1 X155.204 Y106.239 E50.55926
G1 X155.244 Y105.822 E50.58016
G1 X155.362 Y105.42 E50.60107
G1 X155.555 Y105.048 E50.62197
G0 F3000 X155.952 Y105.175
G1 F1500 X156.131 Y104.966 E50.6357
G1 X191.158 Y69.939 E53.10705
G1 X191.453 Y69.701 E53.12596
G1 X191.791 Y69.53 E53.14485
G1 X192.157 Y69.433 E53.16374
G1 X192.536 Y69.415 E53.18267
G1 X193.124 Y69.551 E53.21278
G1 X193.703 Y69.836 E53.24498
G1 X193.99 Y70.083 E53.26387
G1 X194.219 Y70.385 E53.28278
G1 X194.38 Y70.728 E53.30168
G1 X194.478 Y71.315 E53.33137
G1 X194.478 Y87.421 E54.13491
G1 X194.438 Y87.798 E54.15382
G1 X194.31 Y88.185 E54.17416
G1 X194.128 Y88.518 E54.19309
G1 X193.921 Y88.766 E54.20921
G1 X176.362 Y106.322 E55.44798
G1 X193.921 Y123.878 E56.68676
G1 X194.159 Y124.173 E56.70567
G1 X194.34 Y124.531 E56.72568
G1 X194.448 Y124.894 E56.74458
G1 X194.478 Y125.223 E56.76106
G1 X194.478 Y141.329 E57.56459
G1 X194.438 Y141.706 E57.58351
G1 X194.32 Y142.066 E57.60241
G1 X194.13 Y142.393 E57.62127
G1 X193.875 Y142.674 E57.64021
G1 X193.371 Y142.99 E57.66988
G1 X192.761 Y143.202 E57.7021
G1 X192.383 Y143.231 E57.72102
G1 X192.007 Y143.181 E57.73994
G1 X191.65 Y143.054 E57.75884
G1 X191.158 Y142.705 E57.78894
G1 X156.131 Y107.678 E60.26028
G1 X155.893 Y107.383 E60.27919
G1 X155.722 Y107.045 E60.29809
G1 X155.625 Y106.679 E60.31698
G1 X155.604 Y106.239 E60.33896
G1 X155.644 Y105.862 E60.35787
G1 X155.762 Y105.502 E60.37677
G1 X155.952 Y105.175 E60.39564
G0 F3000 X156.161 Y105.595
G1 F1500 X156.414 Y105.249 E60.41702
G1 X191.441 Y70.222 E62.88837
G1 X191.704 Y70.016 E62.90504
G1 X192.008 Y69.877 E62.92171
G1 X192.336 Y69.815 E62.93837
G1 X192.67 Y69.833 E62.95505
G1 X193.217 Y70.023 E62.98394
G1 X193.508 Y70.187 E63.00061
G1 X193.751 Y70.416 E63.01727
G1 X193.934 Y70.696 E63.03395
G1 X194.045 Y71.011 E63.05062
G1 X194.078 Y71.315 E63.06587
G1 X194.078 Y87.421 E63.8694
G1 X194.038 Y87.753 E63.88609
G1 X193.94 Y88.031 E63.90079
G1 X193.776 Y88.322 E63.91746
G1 X193.638 Y88.483 E63.92804
G1 X175.796 Y106.322 E65.18678
G1 X193.638 Y124.161 E66.44553
G1 X193.844 Y124.424 E66.46219
G1 X193.97 Y124.685 E66.47665
G1 X194.061 Y125.006 E66.4933
G1 X194.078 Y125.223 E66.50416
G1 X194.078 Y141.329 E67.30769
G1 X194.038 Y141.661 E67.32437
G1 X193.921 Y141.973 E67.341
G1 X193.733 Y142.25 E67.3577
G1 X193.485 Y142.473 E67.37434
G1 X192.97 Y142.724 E67.40292
G1 X192.648 Y142.815 E67.41961
G1 X192.315 Y142.827 E67.43624
G1 X191.987 Y142.76 E67.45294
G1 X191.685 Y142.617 E67.46961
G1 X191.441 Y142.422 E67.48519
G1 X156.414 Y107.395 E69.95654
G1 X156.208 Y107.132 E69.9732
G1 X156.069 Y106.828 E69.98988
G1 X156.004 Y106.239 E70.01945
G1 X156.044 Y105.907 E70.03613
G1 X156.161 Y105.595 E70.05275
G0 F3000 X156.56 Y105.703
G1 F1500 X156.697 Y105.532 E70.06368
G1 X191.724 Y70.505 E72.53503
G1 X191.95 Y70.336 E72.54911
G1 X192.214 Y70.236 E72.56319
G1 X192.495 Y70.214 E72.57725
G1 X193.063 Y70.392 E72.60695
G1 X193.305 Y70.536 E72.621
G1 X193.498 Y70.742 E72.63508
G1 X193.625 Y70.994 E72.64916
G1 X193.678 Y71.315 E72.66539
G1 X193.678 Y87.421 E73.46892
G1 X193.571 Y87.878 E73.49234
G1 X193.355 Y88.2 E73.51169
G1 X175.23 Y106.322 E74.7904
G1 X193.355 Y124.444 E76.06911
G1 X193.601 Y124.838 E76.09228
G1 X193.678 Y125.223 E76.11187
G1 X193.678 Y141.329 E76.9154
G1 X193.638 Y141.608 E76.92946
G1 X193.522 Y141.865 E76.94353
G1 X193.339 Y142.08 E76.95761
G1 X192.816 Y142.355 E76.98709
G1 X192.543 Y142.426 E77.00117
G1 X192.261 Y142.417 E77.01524
G1 X191.992 Y142.331 E77.02933
G1 X191.724 Y142.139 E77.04578
G1 X156.697 Y107.112 E79.51713
G1 X156.528 Y106.886 E79.5312
G1 X156.428 Y106.622 E79.54529
G1 X156.404 Y106.239 E79.56443
G1 X156.444 Y105.96 E79.5785
G1 X156.56 Y105.703 E79.59256
G0 F3000 X156.98 Y105.815
G1 F1500 X192.007 Y70.788 E82.06391
G1 X192.186 Y70.664 E82.07477
G1 X192.399 Y70.613 E82.0857
G1 X192.662 Y70.658 E82.09901
G1 X193.092 Y70.88 E82.12315
G1 X193.22 Y71.057 E82.13405
G1 X193.278 Y71.315 E82.14724
G1 X193.278 Y87.421 E82.95078
G1 X193.202 Y87.724 E82.96636
G1 X193.072 Y87.917 E82.97797
G1 X174.664 Y106.322 E84.27665
G1 X193.072 Y124.727 E85.57533
G1 X193.232 Y124.992 E85.59077
G1 X193.278 Y125.223 E85.60252
G1 X193.278 Y141.329 E86.40605
G1 X193.238 Y141.544 E86.41696
G1 X193.125 Y141.73 E86.42782
G1 X192.909 Y141.883 E86.44103
G1 X192.449 Y142.032 E86.46515
G1 X192.233 Y141.998 E86.47606
G1 X192.007 Y141.856 E86.48937
G1 X156.98 Y106.829 E88.96072
G1 X156.856 Y106.65 E88.97158
G1 X156.804 Y106.239 E88.99225
G1 X156.844 Y106.024 E89.00316
G1 X156.98 Y105.815 E89.0156
G0 F3000 X157.263 Y106.098
G1 F1500 X192.29 Y71.071 E91.48695
G1 X192.401 Y71.014 E91.49317
G1 X192.755 Y71.13 E91.51176
G1 X192.849 Y71.212 E91.51798
G1 X192.878 Y71.315 E91.52332
G1 X192.878 Y87.421 E92.32685
G1 X192.789 Y87.634 E92.33837
G1 X174.098 Y106.322 E93.65701
G1 X192.789 Y125.01 E94.97566
G1 X192.878 Y125.223 E94.98717
G1 X192.878 Y141.329 E95.79071
G1 X192.839 Y141.448 E95.79695
G1 X192.508 Y141.617 E95.81549
G1 X192.383 Y141.626 E95.82175
G1 X192.29 Y141.573 E95.82709
G1 X157.263 Y106.546 E98.29843
G1 X157.204 Y106.405 E98.30606
G1 X157.204 Y106.239 E98.31434
G1 X157.263 Y106.098 E98.32196
G1 F1500 E91.82196
;MESH:coltar5mmV4.stl
G0 F3000 X173.323 Y106.11
G1 F1500 E98.32196
G0 F3000 X173.534 Y106.322
;TYPE:WALL-OUTER
G1 F1500 X192.478 Y125.264 E99.65849
G1 X192.478 Y140.713 E100.42925
G1 X192.478 Y141.195 E100.4533
G1 X192.138 Y140.855 E100.46618
G1 X157.604 Y106.322 E102.9027
G1 X192.138 Y71.789 E105.33923
G1 X192.478 Y71.449 E105.36322
G1 X192.478 Y71.931 E105.37617
G1 X192.478 Y87.38 E106.14693
G1 X173.534 Y106.322 E107.48346
G0 F3000 X173.675 Y106.463
G0 X172.968 Y106.322
;TYPE:WALL-INNER
G1 F1500 X192.078 Y125.43 E108.8317
G1 X192.078 Y139.747 E109.54598
G1 X192.078 Y140.229 E109.57003
G1 X191.738 Y139.889 E109.58291
G1 X158.17 Y106.322 E111.95128
G1 X191.738 Y72.755 E114.31965
G1 X192.078 Y72.415 E114.34364
G1 X192.078 Y72.897 E114.35659
G1 X192.078 Y87.214 E115.07087
G1 X172.968 Y106.322 E116.41912
G0 F3000 X172.402 Y106.322
G1 F1500 X191.678 Y125.596 E117.77907
G1 X191.678 Y138.781 E118.43687
G1 X191.678 Y139.263 E118.46092
G1 X191.338 Y138.923 E118.4738
G1 X158.736 Y106.322 E120.77401
G1 X191.338 Y73.721 E123.07423
G1 X191.678 Y73.381 E123.09821
G1 X191.678 Y73.863 E123.11117
G1 X191.678 Y87.048 E123.76898
G1 X172.402 Y106.322 E125.12893
G0 F3000 X171.85 Y106.322
;TYPE:SKIN
G1 F1500 X191.288 Y125.756 E126.50025
G1 X191.288 Y138.323 E127.12722
G1 X159.286 Y106.322 E129.38509
G1 X191.288 Y74.321 E131.64297
G1 X191.288 Y86.888 E132.26994
G1 X171.85 Y106.322 E133.64126
G0 F3000 X159.8 Y106.06
G1 F1500 X191.107 Y137.367 E135.85014
G0 F3000 X191.107 Y136.801
G1 F1500 X160.083 Y105.777 E138.03905
G0 F3000 X160.366 Y105.494
G1 F1500 X191.107 Y136.236 E140.20803
G0 F3000 X191.107 Y135.67
G1 F1500 X160.649 Y105.211 E142.35704
G0 F3000 X160.931 Y104.928
G1 F1500 X191.107 Y135.104 E144.48612
G0 F3000 X191.107 Y134.539
G1 F1500 X161.214 Y104.646 E146.59523
G0 F3000 X161.497 Y104.363
G1 F1500 X191.107 Y133.973 E148.68438
G0 F3000 X191.107 Y133.407
G1 F1500 X161.78 Y104.08 E150.75355
