;FLAVOR:Marlin
;TIME:2661
;Filament used: 2.15303m
;Layer height: 0.2
;MINX:153.529
;MINY:67.174
;MINZ:0.3
;MAXX:196.478
;MAXY:145.477
;MAXZ:36.9
;Generated with Cura_SteamEngine 4.12.1
M140 S60
M105
M190 S60
M104 S210
M105
M109 S210
M82 ;absolute extrusion mode
M280 P0 S160 ; release BLTouch alarm (OK to send for Non BLTouch)
M420 Z2 ; set fade leveling at 2mm for BLTouch (OK to send for Non BLTouch)
G28 ; home all
G29 ; probe bed
G92 E0 ;zero the extruded length
G1 X0.0 Y50.0 Z10.0 F3600
; perform wipe and prime
G1 Z0.0 F1000
G1 Z0.2 Y70.0 E9.0 F1000.0 ; prime
G1 Y100.0 E12.5 F1000.0 ; prime
G92 E0 ; zero extruder again
M117 Printing...
G92 E0
G92 E0
G1 F1500 E-6.5
;LAYER_COUNT:186
;LAYER:0
M107
G0 F3000 X154.334 Y103.975 Z0.3
;TYPE:SKIRT
G1 F1500 E0
G1 X154.635 Y103.635 E0.02265
G1 X189.991 Y68.28 E2.51718
G1 X190.408 Y67.92 E2.54466
G1 X190.872 Y67.623 E2.57215
G1 X191.375 Y67.397 E2.59966
G1 X191.905 Y67.246 E2.62715
G1 X192.451 Y67.174 E2.65463
G1 X193.002 Y67.181 E2.68212
G1 X193.546 Y67.268 E2.7096
G1 X194.072 Y67.432 E2.73709
G1 X194.569 Y67.671 E2.76461
G1 X195.025 Y67.979 E2.79206
G1 X195.433 Y68.35 E2.81957
G1 X195.782 Y68.776 E2.84705
G1 X196.067 Y69.248 E2.87455
G1 X196.28 Y69.756 E2.90204
G1 X196.417 Y70.289 E2.92949
G1 X196.478 Y70.967 E2.96345
G1 X196.478 Y87.462 E3.78639
G1 X196.438 Y88.012 E3.8139
G1 X196.319 Y88.55 E3.84139
G1 X196.123 Y89.065 E3.86889
G1 X195.855 Y89.546 E3.89636
G1 X195.365 Y90.149 E3.93512
G1 X179.191 Y106.322 E5.07625
G1 X195.365 Y122.495 E6.21738
G1 X195.725 Y122.912 E6.24486
G1 X196.022 Y123.376 E6.27235
G1 X196.248 Y123.879 E6.29986
G1 X196.398 Y124.409 E6.32734
G1 X196.478 Y125.182 E6.36611
G1 X196.478 Y141.678 E7.1891
G1 X196.438 Y142.228 E7.21661
G1 X196.319 Y142.766 E7.2441
G1 X196.123 Y143.281 E7.27159
G1 X195.855 Y143.762 E7.29906
G1 X195.521 Y144.2 E7.32654
G1 X195.126 Y144.584 E7.35403
G1 X194.68 Y144.908 E7.38153
G1 X194.192 Y145.163 E7.409
G1 X193.672 Y145.346 E7.4365
G1 X193.131 Y145.451 E7.464
G1 X192.581 Y145.477 E7.49147
G1 X192.032 Y145.423 E7.51899
G1 X191.498 Y145.29 E7.54644
G1 X190.988 Y145.081 E7.57394
G1 X190.513 Y144.801 E7.60145
G1 X189.991 Y144.365 E7.63538
G1 X154.635 Y109.009 E10.12994
G1 X154.275 Y108.592 E10.15742
G1 X153.978 Y108.128 E10.18491
G1 X153.752 Y107.625 E10.21242
G1 X153.601 Y107.095 E10.23991
G1 X153.529 Y106.549 E10.26739
G1 X153.536 Y105.998 E10.29488
G1 X153.622 Y105.454 E10.32236
G1 X153.787 Y104.928 E10.34986
G1 X154.026 Y104.431 E10.37737
G1 X154.334 Y103.975 E10.40483
G0 F3000 X154.507 Y104.415
G1 F1500 X154.918 Y103.918 E10.437
G1 X190.274 Y68.563 E12.93152
G1 X190.67 Y68.224 E12.95753
G1 X191.112 Y67.949 E12.9835
G1 X191.592 Y67.745 E13.00952
G1 X192.097 Y67.617 E13.03551
G1 X192.616 Y67.568 E13.06152
G1 X193.136 Y67.598 E13.08751
G1 X193.646 Y67.708 E13.11354
G1 X194.133 Y67.894 E13.13955
G1 X194.585 Y68.152 E13.16551
G1 X194.993 Y68.477 E13.19153
G1 X195.346 Y68.86 E13.21752
G1 X195.637 Y69.292 E13.24351
G1 X195.858 Y69.764 E13.26951
G1 X196.005 Y70.264 E13.29551
G1 X196.078 Y70.967 E13.33077
G1 X196.078 Y87.462 E14.15371
G1 X196.038 Y87.982 E14.17973
G1 X195.919 Y88.489 E14.20571
G1 X195.724 Y88.972 E14.2317
G1 X195.458 Y89.42 E14.25769
G1 X195.082 Y89.866 E14.28679
G1 X178.625 Y106.322 E15.44789
G1 X195.082 Y122.778 E16.60898
G1 X195.421 Y123.173 E16.63495
G1 X195.696 Y123.616 E16.66097
G1 X195.9 Y124.096 E16.68699
G1 X196.028 Y124.601 E16.71298
G1 X196.078 Y125.182 E16.74207
G1 X196.078 Y141.678 E17.56506
G1 X196.038 Y142.198 E17.59108
G1 X195.919 Y142.705 E17.61706
G1 X195.724 Y143.188 E17.64305
G1 X195.458 Y143.636 E17.66904
G1 X195.126 Y144.038 E17.69505
G1 X194.736 Y144.384 E17.72106
G1 X194.298 Y144.667 E17.74708
G1 X193.823 Y144.88 E17.77305
G1 X193.32 Y145.017 E17.79906
G1 X192.802 Y145.076 E17.82507
G1 X192.281 Y145.055 E17.85109
G1 X191.77 Y144.954 E17.87707
G1 X191.28 Y144.777 E17.90306
G1 X190.823 Y144.527 E17.92905
G1 X190.274 Y144.082 E17.96431
G1 X154.918 Y108.726 E20.45887
G1 X154.579 Y108.33 E20.48487
G1 X154.304 Y107.888 E20.51085
G1 X154.1 Y107.408 E20.53687
G1 X153.972 Y106.903 E20.56286
G1 X153.923 Y106.384 E20.58887
G1 X153.953 Y105.864 E20.61485
G1 X154.063 Y105.354 E20.64088
G1 X154.249 Y104.868 E20.66684
G1 X154.507 Y104.415 E20.69285
G0 F3000 X154.998 Y104.425
G1 F1500 X155.201 Y104.201 E20.70793
G1 X190.557 Y68.846 E23.20245
G1 X190.93 Y68.529 E23.22688
G1 X191.35 Y68.277 E23.25131
G1 X191.805 Y68.097 E23.27572
G1 X192.283 Y67.993 E23.30013
G1 X192.772 Y67.968 E23.32456
G1 X193.258 Y68.024 E23.34896
G1 X193.729 Y68.157 E23.37338
G1 X194.172 Y68.366 E23.39782
G1 X194.575 Y68.643 E23.42222
G1 X194.928 Y68.983 E23.44667
G1 X195.221 Y69.375 E23.47108
G1 X195.446 Y69.81 E23.49552
G1 X195.597 Y70.275 E23.51991
G1 X195.678 Y70.967 E23.55467
G1 X195.678 Y87.462 E24.37761
G1 X195.638 Y87.95 E24.40204
G1 X195.519 Y88.425 E24.42647
G1 X195.325 Y88.874 E24.45087
G1 X195.06 Y89.286 E24.47531
G1 X194.799 Y89.583 E24.49503
G1 X178.059 Y106.322 E25.6761
G1 X194.799 Y123.061 E26.85716
G1 X195.116 Y123.434 E26.88158
G1 X195.368 Y123.854 E26.90602
G1 X195.548 Y124.309 E26.93043
G1 X195.652 Y124.787 E26.95483
G1 X195.678 Y125.182 E26.97458
G1 X195.678 Y141.678 E27.79757
G1 X195.638 Y142.166 E27.822
G1 X195.519 Y142.641 E27.84643
G1 X195.325 Y143.09 E27.87083
G1 X195.06 Y143.502 E27.89527
G1 X194.732 Y143.865 E27.91968
G1 X194.349 Y144.17 E27.94411
G1 X193.921 Y144.408 E27.96854
G1 X193.461 Y144.574 E27.99294
G1 X192.98 Y144.663 E28.01734
G1 X192.49 Y144.672 E28.04179
G1 X192.006 Y144.602 E28.06619
G1 X191.539 Y144.453 E28.09065
G1 X191.103 Y144.231 E28.11505
G1 X190.557 Y143.799 E28.14979
G1 X155.201 Y108.443 E30.64435
G1 X154.884 Y108.07 E30.66877
G1 X154.632 Y107.65 E30.6932
G1 X154.452 Y107.195 E30.71762
G1 X154.348 Y106.717 E30.74202
G1 X154.323 Y106.228 E30.76645
G1 X154.379 Y105.742 E30.79086
G1 X154.512 Y105.271 E30.81527
G1 X154.721 Y104.828 E30.83971
G1 X154.998 Y104.425 E30.86411
G0 F3000 X155.203 Y104.815
G1 F1500 X155.484 Y104.483 E30.88581
G1 X190.84 Y69.128 E33.38033
G1 X191.189 Y68.836 E33.40303
G1 X191.584 Y68.609 E33.42576
G1 X192.012 Y68.454 E33.44847
G1 X192.461 Y68.376 E33.47121
G1 X192.917 Y68.378 E33.49396
G1 X193.365 Y68.459 E33.51667
G1 X193.792 Y68.618 E33.5394
G1 X194.185 Y68.848 E33.56212
G1 X194.532 Y69.144 E33.58488
G1 X194.822 Y69.496 E33.60763
G1 X195.046 Y69.893 E33.63037
G1 X195.197 Y70.322 E33.65306
G1 X195.278 Y70.967 E33.68549
G1 X195.278 Y87.462 E34.50843
G1 X195.238 Y87.916 E34.53117
G1 X195.12 Y88.356 E34.5539
G1 X194.926 Y88.768 E34.57662
G1 X194.516 Y89.301 E34.61017
G1 X177.494 Y106.322 E35.81112
G1 X194.516 Y123.343 E37.01208
G1 X194.809 Y123.693 E37.03486
G1 X195.036 Y124.088 E37.05758
G1 X195.191 Y124.516 E37.08029
G1 X195.278 Y125.182 E37.1138
G1 X195.278 Y141.678 E37.93679
G1 X195.238 Y142.132 E37.95953
G1 X195.12 Y142.572 E37.98226
G1 X194.926 Y142.984 E38.00498
G1 X194.663 Y143.357 E38.02775
G1 X194.34 Y143.678 E38.05047
G1 X193.965 Y143.937 E38.0732
G1 X193.551 Y144.127 E38.09593
G1 X193.11 Y144.242 E38.11867
G1 X192.656 Y144.278 E38.14139
G1 X192.203 Y144.234 E38.16409
G1 X191.764 Y144.112 E38.18683
G1 X191.353 Y143.915 E38.20956
G1 X190.84 Y143.516 E38.24199
G1 X155.484 Y108.16 E40.73655
G1 X155.191 Y107.811 E40.75928
G1 X154.964 Y107.416 E40.78201
G1 X154.809 Y106.988 E40.80472
G1 X154.731 Y106.539 E40.82745
G1 X154.733 Y106.083 E40.85021
G1 X154.814 Y105.635 E40.87292
G1 X154.973 Y105.208 E40.89565
G1 X155.203 Y104.815 E40.91837
G0 F3000 X155.446 Y105.172
G1 F1500 X155.766 Y104.766 E40.94416
G1 X191.122 Y69.411 E43.43868
G1 X191.446 Y69.145 E43.45959
G1 X191.813 Y68.944 E43.48047
G1 X192.213 Y68.817 E43.50141
G1 X192.629 Y68.768 E43.52231
G1 X193.047 Y68.798 E43.54321
G1 X193.451 Y68.907 E43.56409
G1 X193.828 Y69.091 E43.58502
G1 X194.163 Y69.343 E43.60593
G1 X194.444 Y69.654 E43.62684
G1 X194.66 Y70.013 E43.64775
G1 X194.805 Y70.406 E43.66865
G1 X194.878 Y70.967 E43.69687
G1 X194.878 Y87.462 E44.51981
G1 X194.838 Y87.879 E44.54071
G1 X194.72 Y88.281 E44.56161
G1 X194.527 Y88.653 E44.58252
G1 X194.234 Y89.018 E44.60587
G1 X176.929 Y106.322 E45.8268
G1 X194.234 Y123.626 E47.04772
G1 X194.5 Y123.95 E47.06864
G1 X194.701 Y124.317 E47.08951
G1 X194.828 Y124.717 E47.11045
G1 X194.878 Y125.182 E47.13378
G1 X194.878 Y141.678 E47.95677
G1 X194.838 Y142.095 E47.97767
G1 X194.72 Y142.497 E47.99857
G1 X194.527 Y142.869 E48.01948
G1 X194.268 Y143.198 E48.04037
G1 X193.951 Y143.472 E48.06128
G1 X193.588 Y143.681 E48.08217
G1 X193.191 Y143.817 E48.10311
G1 X192.776 Y143.876 E48.12402
G1 X192.358 Y143.855 E48.1449
G1 X191.951 Y143.754 E48.16582
G1 X191.57 Y143.579 E48.18674
G1 X191.122 Y143.234 E48.21495
G1 X155.766 Y107.878 E50.70951
G1 X155.5 Y107.554 E50.73042
G1 X155.299 Y107.187 E50.7513
G1 X155.172 Y106.787 E50.77224
G1 X155.123 Y106.371 E50.79313
G1 X155.153 Y105.953 E50.81404
G1 X155.262 Y105.549 E50.83492
G1 X155.446 Y105.172 E50.85585
G0 F3000 X156.049 Y105.049
G1 F1500 X191.405 Y69.694 E53.35037
G1 X191.7 Y69.456 E53.36928
G1 X192.038 Y69.285 E53.38818
G1 X192.404 Y69.188 E53.40707
G1 X192.783 Y69.17 E53.426
G1 X193.157 Y69.232 E53.44491
G1 X193.509 Y69.371 E53.46379
G1 X193.825 Y69.58 E53.48269
G1 X194.09 Y69.851 E53.5016
G1 X194.293 Y70.171 E53.52051
G1 X194.423 Y70.527 E53.53942
G1 X194.478 Y70.967 E53.56154
G1 X194.478 Y87.462 E54.38448
G1 X194.438 Y87.839 E54.40339
G1 X194.32 Y88.199 E54.42229
G1 X194.13 Y88.526 E54.44116
G1 X193.951 Y88.735 E54.45489
G1 X176.363 Y106.322 E55.69578
G1 X193.951 Y123.909 E56.93668
G1 X194.189 Y124.204 E56.95559
G1 X194.36 Y124.542 E56.97448
G1 X194.457 Y124.908 E56.99337
G1 X194.478 Y125.182 E57.00708
G1 X194.478 Y141.678 E57.83007
G1 X194.438 Y142.055 E57.84899
G1 X194.32 Y142.415 E57.86789
G1 X194.13 Y142.742 E57.88676
G1 X193.875 Y143.023 E57.90569
G1 X193.566 Y143.243 E57.92461
G1 X193.219 Y143.395 E57.94351
G1 X192.848 Y143.47 E57.9624
G1 X192.469 Y143.466 E57.98131
G1 X192.099 Y143.382 E58.00023
G1 X191.755 Y143.223 E58.01914
G1 X191.405 Y142.951 E58.04126
G1 X156.049 Y107.595 E60.53581
G1 X155.811 Y107.3 E60.55472
G1 X155.64 Y106.962 E60.57362
G1 X155.543 Y106.596 E60.59251
G1 X155.525 Y106.217 E60.61144
G1 X155.587 Y105.843 E60.63035
G1 X155.725 Y105.491 E60.64922
G1 X156.049 Y105.049 E60.67656
G0 F3000 X156.332 Y105.332
G1 F1500 X191.688 Y69.977 E63.17108
G1 X191.951 Y69.771 E63.18775
G1 X192.255 Y69.632 E63.20442
G1 X192.583 Y69.57 E63.22108
G1 X192.917 Y69.588 E63.23776
G1 X193.237 Y69.683 E63.25442
G1 X193.525 Y69.852 E63.27108
G1 X193.765 Y70.085 E63.28777
G1 X193.943 Y70.367 E63.3044
G1 X194.049 Y70.684 E63.32108
G1 X194.078 Y70.967 E63.33527
G1 X194.078 Y87.462 E64.15821
G1 X194.038 Y87.794 E64.17489
G1 X193.921 Y88.106 E64.19152
G1 X193.668 Y88.452 E64.2129
G1 X175.797 Y106.322 E65.47376
G1 X193.668 Y124.192 E66.73462
G1 X193.874 Y124.455 E66.75129
G1 X194.013 Y124.759 E66.76797
G1 X194.078 Y125.182 E66.78932
G1 X194.078 Y141.678 E67.61231
G1 X194.038 Y142.01 E67.62899
G1 X193.921 Y142.322 E67.64562
G1 X193.733 Y142.599 E67.66232
G1 X193.485 Y142.822 E67.67896
G1 X193.191 Y142.981 E67.69563
G1 X192.867 Y143.065 E67.71233
G1 X192.533 Y143.071 E67.729
G1 X192.208 Y142.997 E67.74563
G1 X191.909 Y142.848 E67.76229
G1 X191.688 Y142.668 E67.77651
G1 X156.332 Y107.312 E70.27107
G1 X156.126 Y107.049 E70.28774
G1 X155.987 Y106.745 E70.30441
G1 X155.925 Y106.417 E70.32107
G1 X155.943 Y106.083 E70.33775
G1 X156.038 Y105.763 E70.35441
G1 X156.332 Y105.332 E70.38044
G0 F3000 X156.615 Y105.615
G1 F1500 X191.971 Y70.26 E72.87496
G1 X192.197 Y70.091 E72.88904
G1 X192.461 Y69.991 E72.90312
G1 X192.742 Y69.969 E72.91718
G1 X193.018 Y70.027 E72.93125
G1 X193.267 Y70.159 E72.94531
G1 X193.469 Y70.356 E72.95939
G1 X193.609 Y70.601 E72.97347
G1 X193.678 Y70.967 E72.99205
G1 X193.678 Y87.462 E73.81499
G1 X193.638 Y87.741 E73.82905
G1 X193.522 Y87.998 E73.84312
G1 X193.385 Y88.169 E73.85405
G1 X175.231 Y106.322 E75.13488
G1 X193.385 Y124.475 E76.41571
G1 X193.554 Y124.701 E76.42978
G1 X193.654 Y124.964 E76.44382
G1 X193.678 Y125.182 E76.45476
G1 X193.678 Y141.678 E77.27775
G1 X193.638 Y141.957 E77.29181
G1 X193.522 Y142.214 E77.30588
G1 X193.339 Y142.429 E77.31997
G1 X193.103 Y142.583 E77.33403
G1 X192.833 Y142.666 E77.34812
G1 X192.551 Y142.67 E77.36219
G1 X192.279 Y142.595 E77.37627
G1 X191.971 Y142.385 E77.39486
G1 X156.615 Y107.029 E79.88942
G1 X156.446 Y106.803 E79.9035
G1 X156.346 Y106.539 E79.91758
G1 X156.324 Y106.258 E79.93165
G1 X156.382 Y105.982 E79.94572
G1 X156.615 Y105.615 E79.9674
G0 F3000 X156.898 Y105.898
G1 F1500 X192.254 Y70.543 E82.46193
G1 X192.433 Y70.419 E82.47279
G1 X192.646 Y70.368 E82.48372
G1 X192.862 Y70.396 E82.49458
G1 X193.054 Y70.499 E82.50545
G1 X193.196 Y70.665 E82.51635
G1 X193.278 Y70.967 E82.53196
G1 X193.278 Y87.462 E83.3549
G1 X193.238 Y87.677 E83.36581
G1 X193.102 Y87.886 E83.37825
G1 X174.665 Y106.322 E84.67905
G1 X193.102 Y124.758 E85.97984
G1 X193.226 Y124.937 E85.99071
G1 X193.278 Y125.182 E86.0032
G1 X193.278 Y141.678 E86.82619
G1 X193.238 Y141.893 E86.8371
G1 X193.125 Y142.079 E86.84796
G1 X192.952 Y142.212 E86.85885
G1 X192.743 Y142.274 E86.86972
G1 X192.525 Y142.258 E86.88063
G1 X192.254 Y142.102 E86.89623
G1 X156.898 Y106.746 E89.39079
G1 X156.774 Y106.567 E89.40165
G1 X156.723 Y106.354 E89.41258
G1 X156.751 Y106.138 E89.42344
G1 X156.898 Y105.898 E89.43748
G0 F3000 X157.181 Y106.181
G1 F1500 X192.537 Y70.826 E91.932
G1 X192.648 Y70.769 E91.93823
G1 X192.771 Y70.79 E91.94446
G1 X192.858 Y70.88 E91.9507
G1 X192.878 Y70.967 E91.95515
G1 X192.878 Y87.462 E92.77809
G1 X192.819 Y87.603 E92.78572
G1 X174.099 Y106.322 E94.10648
G1 X192.819 Y125.041 E95.42724
G1 X192.878 Y125.182 E95.43487
G1 X192.878 Y141.678 E96.25786
G1 X192.839 Y141.797 E96.2641
G1 X192.737 Y141.869 E96.27033
G1 X192.612 Y141.867 E96.27657
G1 X192.537 Y141.819 E96.28101
G1 X157.181 Y106.463 E98.77557
G1 X157.124 Y106.352 E98.78179
G1 X157.181 Y106.181 E98.79079
G1 F1500 E92.29079
;MESH:coltar5mmV4.stl
G0 F3000 X173.323 Y106.11
G1 F1500 E98.79079
G0 F3000 X173.534 Y106.322
;TYPE:WALL-OUTER
G1 F1500 X192.478 Y125.264 E100.12732
G1 X192.478 Y140.713 E100.89807
G1 X192.478 Y141.195 E100.92212
G1 X192.138 Y140.855 E100.935
G1 X157.604 Y106.322 E103.37153
G1 X192.138 Y71.789 E105.80805
G1 X192.478 Y71.449 E105.83204
G1 X192.478 Y71.931 E105.845
G1 X192.478 Y87.38 E106.61575
G1 X173.534 Y106.322 E107.95228
G0 F3000 X173.675 Y106.463
G0 X172.968 Y106.322
;TYPE:WALL-INNER
G1 F1500 X192.078 Y125.43 E109.30053
G1 X192.078 Y139.747 E110.0148
G1 X192.078 Y140.229 E110.03885
G1 X191.738 Y139.889 E110.05173
G1 X158.17 Y106.322 E112.4201
G1 X191.738 Y72.755 E114.78847
G1 X192.078 Y72.415 E114.81246
G1 X192.078 Y72.897 E114.82542
G1 X192.078 Y87.214 E115.5397
G1 X172.968 Y106.322 E116.88794
G0 F3000 X172.402 Y106.322
G1 F1500 X191.678 Y125.596 E118.24789
G1 X191.678 Y138.781 E118.9057
G1 X191.678 Y139.263 E118.92974
G1 X191.338 Y138.923 E118.94263
G1 X158.736 Y106.322 E121.24284
G1 X191.338 Y73.721 E123.54305
G1 X191.678 Y73.381 E123.56704
G1 X191.678 Y73.863 E123.58
G1 X191.678 Y87.048 E124.2378
G1 X172.402 Y106.322 E125.59775
G0 F3000 X171.85 Y106.322
;TYPE:SKIN
G1 F1500 X191.288 Y125.756 E126.96907
G1 X191.288 Y138.323 E127.59604
G1 X159.286 Y106.322 E129.85392
G1 X191.288 Y74.321 E132.1118
G1 X191.288 Y86.888 E132.73877
G1 X171.85 Y106.322 E134.11008
G0 F3000 X159.8 Y106.06
G1 F1500 X191.107 Y137.367 E136.31896
G0 F3000 X191.107 Y136.801
G1 F1500 X160.083 Y105.777 E138.50787
G0 F3000 X160.366 Y105.494
G1 F1500 X191.107 Y136.236 E140.67685
G0 F3000 X191.107 Y135.67
G1 F1500 X160.649 Y105.211 E142.82586
G0 F3000 X160.931 Y104.928
G1 F1500 X191.107 Y135.104 E144.95494
G0 F3000 X191.107 Y134.539
G1 F1500 X161.214 Y104.646 E147.06405
G0 F3000 X161.497 Y104.363
G1 F1500 X191.107 Y133.973 E149.1532
G0 F3000 X191.107 Y133.407
G1 F1500 X161.78 Y104.08 E151.22238
G0 F3000 X162.063 Y103.797
G1 F1500 X191.107 Y132.842 E153.27162
G0 F3000 X191.107 Y132.276
G1 F1500 X162.346 Y103.514 E155.3009
G0 F3000 X162.628 Y103.231
G1 F1500 X191.107 Y131.71 E157.31025
G0 F3000 X191.107 Y131.144
G1 F1500 X162.911 Y102.949 E159.29959
