;FLAVOR:Marlin
;TIME:15323
;Filament used: 13.6607m
;Layer height: 0.2
;MINX:99.2
;MINY:81.95
;MINZ:0.3
;MAXX:250.8
;MAXY:177.05
;MAXZ:9.1
;Generated with Cura_SteamEngine 4.12.1
M140 S60
M105
M190 S60
M104 S210
M105
M109 S210
M82 ;absolute extrusion mode
M280 P0 S160 ; release BLTouch alarm (OK to send for Non BLTouch)
M420 Z2 ; set fade leveling at 2mm for BLTouch (OK to send for Non BLTouch)
G28 ; home all
G29 ; probe bed
G92 E0 ;zero the extruded length
G1 X0.0 Y50.0 Z10.0 F3600
; perform wipe and prime
G1 Z0.0 F1000
G1 Z0.2 Y70.0 E9.0 F1000.0 ; prime
G1 Y100.0 E12.5 F1000.0 ; prime
G92 E0 ; zero extruder again
M117 Printing...
G92 E0
G92 E0
G1 F1500 E-6.5
;LAYER_COUNT:45
;LAYER:0
M107
G0 F3000 X100.157 Y83.228 Z0.3
;TYPE:SKIRT
G1 F1500 E0
G1 X100.552 Y82.844 E0.02748
G1 X100.998 Y82.52 E0.05499
G1 X101.486 Y82.265 E0.08246
G1 X102.006 Y82.082 E0.10996
G1 X102.547 Y81.977 E0.13745
G1 X103 Y81.95 E0.16009
G1 X247 Y81.95 E7.34428
G1 X247.55 Y81.99 E7.3718
G1 X248.088 Y82.109 E7.39928
G1 X248.603 Y82.305 E7.42678
G1 X249.084 Y82.573 E7.45425
G1 X249.522 Y82.907 E7.48173
G1 X249.906 Y83.302 E7.50921
G1 X250.23 Y83.748 E7.53671
G1 X250.485 Y84.236 E7.56418
G1 X250.668 Y84.756 E7.59169
G1 X250.773 Y85.297 E7.61918
G1 X250.8 Y85.75 E7.64182
G1 X250.8 Y173.25 E12.00721
G1 X250.76 Y173.8 E12.03473
G1 X250.641 Y174.338 E12.06222
G1 X250.445 Y174.853 E12.08971
G1 X250.177 Y175.334 E12.11718
G1 X249.843 Y175.772 E12.14466
G1 X249.448 Y176.156 E12.17214
G1 X249.002 Y176.48 E12.19964
G1 X248.514 Y176.735 E12.22711
G1 X247.994 Y176.918 E12.25462
G1 X247.453 Y177.023 E12.28211
G1 X247 Y177.05 E12.30475
G1 X103 Y177.05 E19.48894
G1 X102.45 Y177.01 E19.51645
G1 X101.912 Y176.891 E19.54394
G1 X101.397 Y176.695 E19.57143
G1 X100.916 Y176.427 E19.5989
G1 X100.478 Y176.093 E19.62639
G1 X100.094 Y175.698 E19.65387
G1 X99.77 Y175.252 E19.68137
G1 X99.515 Y174.764 E19.70884
G1 X99.332 Y174.244 E19.73634
G1 X99.227 Y173.703 E19.76384
G1 X99.2 Y173.25 E19.78648
G1 X99.2 Y85.75 E24.15187
G1 X99.24 Y85.2 E24.17938
G1 X99.359 Y84.662 E24.20687
G1 X99.555 Y84.147 E24.23436
G1 X99.823 Y83.666 E24.26184
G1 X100.157 Y83.228 E24.28932
G0 F3000 X100.552 Y83.39
G1 F1500 X100.942 Y83.044 E24.31533
G1 X101.38 Y82.761 E24.34134
G1 X101.855 Y82.548 E24.36731
G1 X102.358 Y82.411 E24.39332
G1 X103 Y82.35 E24.4255
G1 X247 Y82.35 E31.60969
G1 X247.52 Y82.39 E31.63571
G1 X248.027 Y82.509 E31.66169
G1 X248.51 Y82.704 E31.68767
G1 X248.958 Y82.97 E31.71367
G1 X249.36 Y83.302 E31.73968
G1 X249.706 Y83.692 E31.76569
G1 X249.989 Y84.13 E31.79171
G1 X250.202 Y84.605 E31.81768
G1 X250.339 Y85.108 E31.84369
G1 X250.4 Y85.75 E31.87586
G1 X250.4 Y173.25 E36.24125
G1 X250.36 Y173.77 E36.26727
G1 X250.241 Y174.277 E36.29325
G1 X250.046 Y174.76 E36.31924
G1 X249.78 Y175.208 E36.34523
G1 X249.448 Y175.61 E36.37125
G1 X249.058 Y175.956 E36.39726
G1 X248.62 Y176.239 E36.42327
G1 X248.145 Y176.452 E36.44924
G1 X247.642 Y176.589 E36.47525
G1 X247 Y176.65 E36.50743
G1 X103 Y176.65 E43.69162
G1 X102.48 Y176.61 E43.71764
G1 X101.973 Y176.491 E43.74362
G1 X101.49 Y176.296 E43.7696
G1 X101.042 Y176.03 E43.7956
G1 X100.64 Y175.698 E43.82161
G1 X100.294 Y175.308 E43.84762
G1 X100.011 Y174.87 E43.87364
G1 X99.798 Y174.395 E43.89961
G1 X99.661 Y173.892 E43.92562
G1 X99.6 Y173.25 E43.95779
G1 X99.6 Y85.75 E48.32318
G1 X99.64 Y85.23 E48.3492
G1 X99.759 Y84.723 E48.37518
G1 X99.954 Y84.24 E48.40117
G1 X100.22 Y83.792 E48.42716
G1 X100.552 Y83.39 E48.45318
G0 F3000 X100.618 Y83.926
G1 F1500 X100.946 Y83.563 E48.47758
G1 X101.329 Y83.258 E48.50201
G1 X101.757 Y83.02 E48.52644
G1 X102.217 Y82.854 E48.55084
G1 X103 Y82.75 E48.59025
G1 X247 Y82.75 E55.77444
G1 X247.488 Y82.79 E55.79887
G1 X247.963 Y82.909 E55.8233
G1 X248.412 Y83.103 E55.8477
G1 X248.824 Y83.368 E55.87214
G1 X249.187 Y83.696 E55.89655
G1 X249.492 Y84.079 E55.92097
G1 X249.73 Y84.507 E55.9454
G1 X249.896 Y84.967 E55.9698
G1 X250 Y85.75 E56.00921
G1 X250 Y173.25 E60.3746
G1 X249.96 Y173.738 E60.39903
G1 X249.841 Y174.213 E60.42346
G1 X249.647 Y174.662 E60.44786
G1 X249.382 Y175.074 E60.4723
G1 X249.054 Y175.437 E60.49671
G1 X248.671 Y175.742 E60.52114
G1 X248.243 Y175.98 E60.54557
G1 X247.783 Y176.146 E60.56997
G1 X247 Y176.25 E60.60937
G1 X103 Y176.25 E67.79356
G1 X102.512 Y176.21 E67.81799
G1 X102.037 Y176.091 E67.84242
G1 X101.588 Y175.897 E67.86682
G1 X101.176 Y175.632 E67.89126
G1 X100.813 Y175.304 E67.91567
G1 X100.508 Y174.921 E67.9401
G1 X100.27 Y174.493 E67.96453
G1 X100.104 Y174.033 E67.98893
G1 X100 Y173.25 E68.02834
G1 X100 Y85.75 E72.39373
G1 X100.04 Y85.262 E72.41816
G1 X100.159 Y84.787 E72.44259
G1 X100.353 Y84.338 E72.46699
G1 X100.618 Y83.926 E72.49143
G0 F3000 X101.015 Y84.071
G1 F1500 X101.338 Y83.75 E72.51415
G1 X101.713 Y83.491 E72.53689
G1 X102.127 Y83.301 E72.55961
G1 X102.568 Y83.186 E72.58235
G1 X103 Y83.15 E72.60398
G1 X247 Y83.15 E79.78816
G1 X247.454 Y83.19 E79.8109
G1 X247.894 Y83.308 E79.83363
G1 X248.306 Y83.502 E79.85635
G1 X248.679 Y83.765 E79.87912
G1 X249 Y84.088 E79.90184
G1 X249.259 Y84.463 E79.92458
G1 X249.449 Y84.877 E79.9473
G1 X249.564 Y85.318 E79.97004
G1 X249.6 Y85.75 E79.99167
G1 X249.6 Y173.25 E84.35706
G1 X249.56 Y173.704 E84.3798
G1 X249.442 Y174.144 E84.40252
G1 X249.248 Y174.556 E84.42524
G1 X248.985 Y174.929 E84.44801
G1 X248.662 Y175.25 E84.47073
G1 X248.287 Y175.509 E84.49347
G1 X247.873 Y175.699 E84.5162
G1 X247.432 Y175.814 E84.53893
G1 X247 Y175.85 E84.56056
G1 X103 Y175.85 E91.74475
G1 X102.546 Y175.81 E91.76749
G1 X102.106 Y175.692 E91.79021
G1 X101.694 Y175.498 E91.81293
G1 X101.321 Y175.235 E91.8357
G1 X101 Y174.912 E91.85842
G1 X100.741 Y174.537 E91.88116
G1 X100.551 Y174.123 E91.90389
G1 X100.436 Y173.682 E91.92662
G1 X100.4 Y173.25 E91.94825
G1 X100.4 Y85.75 E96.31364
G1 X100.44 Y85.296 E96.33638
G1 X100.558 Y84.856 E96.35911
G1 X100.752 Y84.444 E96.38183
G1 X101.015 Y84.071 E96.4046
G0 F3000 X101.41 Y84.23
G1 F1500 X101.727 Y83.956 E96.4255
G1 X102.09 Y83.747 E96.4464
G1 X102.487 Y83.611 E96.46734
G1 X103 Y83.55 E96.49311
G1 X247 Y83.55 E103.6773
G1 X247.417 Y83.59 E103.6982
G1 X247.819 Y83.708 E103.7191
G1 X248.191 Y83.901 E103.74001
G1 X248.52 Y84.16 E103.7609
G1 X248.794 Y84.477 E103.7818
G1 X249.003 Y84.84 E103.8027
G1 X249.139 Y85.237 E103.82364
G1 X249.2 Y85.75 E103.84941
G1 X249.2 Y173.25 E108.2148
G1 X249.16 Y173.667 E108.2357
G1 X249.042 Y174.069 E108.25661
G1 X248.849 Y174.441 E108.27751
G1 X248.59 Y174.77 E108.2984
G1 X248.273 Y175.044 E108.31931
G1 X247.91 Y175.253 E108.3402
G1 X247.513 Y175.389 E108.36114
G1 X247 Y175.45 E108.38692
G1 X103 Y175.45 E115.5711
G1 X102.583 Y175.41 E115.592
G1 X102.181 Y175.292 E115.61291
G1 X101.809 Y175.099 E115.63381
G1 X101.48 Y174.84 E115.6547
G1 X101.206 Y174.523 E115.67561
G1 X100.997 Y174.16 E115.69651
G1 X100.861 Y173.763 E115.71744
G1 X100.8 Y173.25 E115.74322
G1 X100.8 Y85.75 E120.10861
G1 X100.84 Y85.333 E120.12951
G1 X100.958 Y84.931 E120.15041
G1 X101.151 Y84.559 E120.17132
G1 X101.41 Y84.23 E120.19221
G0 F3000 X101.548 Y84.686
G1 F1500 X101.803 Y84.405 E120.21114
G1 X102.112 Y84.185 E120.23006
G1 X102.459 Y84.033 E120.24896
G1 X103 Y83.95 E120.27627
G1 X247 Y83.95 E127.46046
G1 X247.377 Y83.99 E127.47937
G1 X247.737 Y84.108 E127.49827
G1 X248.064 Y84.298 E127.51714
G1 X248.345 Y84.553 E127.53607
G1 X248.565 Y84.862 E127.555
G1 X248.717 Y85.209 E127.5739
G1 X248.8 Y85.75 E127.6012
G1 X248.8 Y173.25 E131.9666
G1 X248.76 Y173.627 E131.98551
G1 X248.642 Y173.987 E132.00441
G1 X248.452 Y174.314 E132.02328
G1 X248.197 Y174.595 E132.04221
G1 X247.888 Y174.815 E132.06113
G1 X247.541 Y174.967 E132.08003
G1 X247 Y175.05 E132.10734
G1 X103 Y175.05 E139.29153
G1 X102.623 Y175.01 E139.31044
G1 X102.263 Y174.892 E139.32935
G1 X101.936 Y174.702 E139.34821
G1 X101.655 Y174.447 E139.36714
G1 X101.435 Y174.138 E139.38607
G1 X101.283 Y173.791 E139.40497
G1 X101.2 Y173.25 E139.43227
G1 X101.2 Y85.75 E143.79767
G1 X101.24 Y85.373 E143.81658
G1 X101.358 Y85.013 E143.83548
G1 X101.548 Y84.686 E143.85435
G0 F3000 X101.945 Y84.829
G1 F1500 X102.193 Y84.606 E143.87099
G1 X102.487 Y84.447 E143.88767
G1 X103 Y84.35 E143.91371
G1 X247 Y84.35 E151.0979
G1 X247.332 Y84.39 E151.11458
G1 X247.644 Y84.507 E151.13121
G1 X247.921 Y84.695 E151.14791
G1 X248.144 Y84.943 E151.16455
G1 X248.303 Y85.237 E151.18123
G1 X248.4 Y85.75 E151.20727
G1 X248.4 Y173.25 E155.57267
G1 X248.36 Y173.582 E155.58935
G1 X248.243 Y173.894 E155.60597
G1 X248.055 Y174.171 E155.62267
G1 X247.807 Y174.394 E155.63931
G1 X247.513 Y174.553 E155.65599
G1 X247 Y174.65 E155.68204
G1 X103 Y174.65 E162.86623
G1 X102.668 Y174.61 E162.88291
G1 X102.356 Y174.493 E162.89953
G1 X102.079 Y174.305 E162.91624
G1 X101.856 Y174.057 E162.93287
G1 X101.697 Y173.763 E162.94955
G1 X101.6 Y173.25 E162.9756
G1 X101.6 Y85.75 E167.34099
G1 X101.64 Y85.418 E167.35767
G1 X101.757 Y85.106 E167.3743
G1 X101.945 Y84.829 E167.391
G0 F3000 X102.339 Y84.999
G1 F1500 X102.575 Y84.845 E167.40506
G1 X103 Y84.75 E167.42678
G1 X247 Y84.75 E174.61097
G1 X247.279 Y84.79 E174.62504
G1 X247.536 Y84.906 E174.6391
G1 X247.751 Y85.089 E174.65319
G1 X247.905 Y85.325 E174.66725
G1 X248 Y85.75 E174.68897
G1 X248 Y173.25 E179.05437
G1 X247.96 Y173.529 E179.06843
G1 X247.844 Y173.786 E179.0825
G1 X247.661 Y174.001 E179.09658
G1 X247.425 Y174.155 E179.11064
G1 X247 Y174.25 E179.13237
G1 X103 Y174.25 E186.31656
G1 X102.721 Y174.21 E186.33062
G1 X102.464 Y174.094 E186.34469
G1 X102.249 Y173.911 E186.35877
G1 X102.095 Y173.675 E186.37283
G1 X102 Y173.25 E186.39456
G1 X102 Y85.75 E190.75995
G1 X102.04 Y85.471 E190.77401
G1 X102.156 Y85.214 E190.78808
G1 X102.339 Y84.999 E190.80217
G0 F3000 X102.553 Y85.349
G1 F1500 X102.726 Y85.216 E190.81305
G1 X103 Y85.15 E190.82711
G1 X247 Y85.15 E198.0113
G1 X247.215 Y85.19 E198.02221
G1 X247.401 Y85.303 E198.03307
G1 X247.534 Y85.476 E198.04396
G1 X247.6 Y85.75 E198.05802
G1 X247.6 Y173.25 E202.42341
G1 X247.56 Y173.465 E202.43432
G1 X247.447 Y173.651 E202.44518
G1 X247.274 Y173.784 E202.45607
G1 X247 Y173.85 E202.47013
G1 X103 Y173.85 E209.65432
G1 X102.785 Y173.81 E209.66523
G1 X102.599 Y173.697 E209.67608
G1 X102.466 Y173.524 E209.68697
G1 X102.4 Y173.25 E209.70103
G1 X102.4 Y85.75 E214.06642
G1 X102.44 Y85.535 E214.07734
G1 X102.553 Y85.349 E214.08819
G0 F3000 X102.839 Y85.631
G1 F1500 X103 Y85.55 E214.09718
G1 X247 Y85.55 E221.28137
G1 X247.119 Y85.589 E221.28762
G1 X247.2 Y85.75 E221.29661
G1 X247.2 Y173.25 E225.66201
G1 X247.161 Y173.369 E225.66825
G1 X247 Y173.45 E225.67725
G1 X103 Y173.45 E232.86143
G1 X102.881 Y173.411 E232.86768
G1 X102.8 Y173.25 E232.87667
G1 X102.8 Y85.75 E237.24207
G1 X102.839 Y85.631 E237.24831
G1 F1500 E230.74831
;MESH:cap.stl
G0 F3000 X103.614 Y86.364
G0 X115.337 Y98.999
G1 F1500 E237.24831
G0 F3000 X115.769 Y99.25
;TYPE:WALL-OUTER
G1 F1500 X118.194 Y103.45 E237.49027
G1 X123.043 Y103.45 E237.73219
G1 X125.469 Y99.25 E237.97417
G1 X123.043 Y95.05 E238.21615
G1 X118.194 Y95.05 E238.45807
G1 X115.769 Y99.25 E238.70003
G0 F3000 X115.869 Y99.423
G0 X115.436 Y99.673
G0 X115.337 Y110.999
G0 X115.769 Y111.25
G1 F1500 X118.194 Y115.45 E238.94199
G1 X123.043 Y115.45 E239.18391
G1 X125.469 Y111.25 E239.42589
G1 X123.043 Y107.05 E239.66787
G1 X118.194 Y107.05 E239.90979
G1 X115.769 Y111.25 E240.15175
G0 F3000 X115.869 Y111.423
G0 X115.436 Y111.673
G0 X115.337 Y122.999
G0 X115.769 Y123.25
G1 F1500 X118.194 Y127.45 E240.3937
G1 X123.043 Y127.45 E240.63562
G1 X125.469 Y123.25 E240.8776
G1 X123.043 Y119.05 E241.11959
G1 X118.194 Y119.05 E241.36151
G1 X115.769 Y123.25 E241.60346
G0 F3000 X115.869 Y123.423
G0 X115.436 Y123.673
G0 X115.337 Y134.999
G0 X115.769 Y135.25
G1 F1500 X118.194 Y139.45 E241.84542
G1 X123.043 Y139.45 E242.08734
G1 X125.469 Y135.25 E242.32932
G1 X123.043 Y131.05 E242.5713
G1 X118.194 Y131.05 E242.81322
G1 X115.769 Y135.25 E243.05518
G0 F3000 X115.869 Y135.423
G0 X115.436 Y135.673
G0 X115.337 Y146.999
G0 X115.769 Y147.25
G1 F1500 X118.194 Y151.45 E243.29714
G1 X123.043 Y151.45 E243.53905
G1 X125.469 Y147.25 E243.78104
G1 X123.043 Y143.05 E244.02302
G1 X118.194 Y143.05 E244.26494
G1 X115.769 Y147.25 E244.5069
G0 F3000 X115.869 Y147.423
G0 X115.436 Y147.673
G0 X115.337 Y158.999
G0 X115.769 Y159.25
G1 F1500 X118.194 Y163.45 E244.74885
G1 X123.043 Y163.45 E244.99077
G1 X125.469 Y159.25 E245.23275
G1 X123.043 Y155.05 E245.47474
G1 X118.194 Y155.05 E245.71665
G1 X115.769 Y159.25 E245.95861
G0 F3000 X115.869 Y159.423
G0 X115.436 Y159.673
G0 X117.943 Y163.884
G0 X123.293 Y163.884
G0 X127.337 Y158.999
G0 X127.769 Y159.25
G1 F1500 X130.194 Y163.45 E246.20057
G1 X135.043 Y163.45 E246.44249
G1 X137.469 Y159.25 E246.68447
G1 X135.043 Y155.05 E246.92645
G1 X130.194 Y155.05 E247.16837
G1 X127.769 Y159.25 E247.41033
G0 F3000 X127.869 Y159.423
G0 X127.436 Y159.673
G0 X129.943 Y163.884
G0 X135.293 Y163.884
G0 X139.337 Y158.999
G0 X139.769 Y159.25
G1 F1500 X142.194 Y163.45 E247.65229
G1 X147.043 Y163.45 E247.8942
G1 X149.469 Y159.25 E248.13619
G1 X147.043 Y155.05 E248.37817
G1 X142.194 Y155.05 E248.62009
G1 X139.769 Y159.25 E248.86205
G0 F3000 X139.869 Y159.423
G0 X139.436 Y159.673
G0 X141.943 Y163.884
G0 X147.293 Y163.884
G0 X151.337 Y158.999
G0 X151.769 Y159.25
G1 F1500 X154.194 Y163.45 E249.104
G1 X159.043 Y163.45 E249.34592
G1 X161.469 Y159.25 E249.5879
G1 X159.043 Y155.05 E249.82989
G1 X154.194 Y155.05 E250.0718
G1 X151.769 Y159.25 E250.31376
G0 F3000 X151.869 Y159.423
G0 X151.436 Y159.673
G0 X153.943 Y163.884
G0 X159.293 Y163.884
G0 X163.337 Y158.999
G0 X163.769 Y159.25
G1 F1500 X166.194 Y163.45 E250.55572
G1 X171.043 Y163.45 E250.79764
G1 X173.469 Y159.25 E251.03962
G1 X171.043 Y155.05 E251.2816
G1 X166.194 Y155.05 E251.52352
G1 X163.769 Y159.25 E251.76548
G0 F3000 X163.869 Y159.423
G0 X163.436 Y159.673
G0 X165.943 Y163.884
G0 X171.293 Y163.884
G0 X175.337 Y158.999
G0 X175.769 Y159.25
G1 F1500 X178.194 Y163.45 E252.00744
G1 X183.043 Y163.45 E252.24935
G1 X185.469 Y159.25 E252.49134
G1 X183.043 Y155.05 E252.73332
G1 X178.194 Y155.05 E252.97524
G1 X175.769 Y159.25 E253.21719
G0 F3000 X175.869 Y159.423
G0 X175.436 Y159.673
G0 X177.943 Y163.884
G0 X183.293 Y163.884
G0 X187.337 Y158.999
G0 X187.769 Y159.25
G1 F1500 X190.194 Y163.45 E253.45915
G1 X195.043 Y163.45 E253.70107
G1 X197.469 Y159.25 E253.94305
G1 X195.043 Y155.05 E254.18504
G1 X190.194 Y155.05 E254.42695
G1 X187.769 Y159.25 E254.66891
G0 F3000 X187.869 Y159.423
G0 X187.436 Y159.673
G0 X189.943 Y163.884
G0 X195.293 Y163.884
G0 X199.337 Y158.999
G0 X199.769 Y159.25
G1 F1500 X202.194 Y163.45 E254.91087
G1 X207.043 Y163.45 E255.15279
G1 X209.469 Y159.25 E255.39477
G1 X207.043 Y155.05 E255.63675
G1 X202.194 Y155.05 E255.87867
G1 X199.769 Y159.25 E256.12063
G0 F3000 X199.869 Y159.423
G0 X199.436 Y159.673
G0 X201.943 Y163.884
G0 X207.293 Y163.884
G0 X211.337 Y158.999
G0 X211.769 Y159.25
G1 F1500 X214.194 Y163.45 E256.36259
G1 X219.043 Y163.45 E256.6045
G1 X221.469 Y159.25 E256.84649
G1 X219.043 Y155.05 E257.08847
G1 X214.194 Y155.05 E257.33039
G1 X211.769 Y159.25 E257.57234
G0 F3000 X211.869 Y159.423
G0 X211.436 Y159.673
G0 X213.943 Y163.884
G0 X219.293 Y163.884
G0 X223.337 Y158.999
G0 X223.769 Y159.25
G1 F1500 X226.194 Y163.45 E257.8143
G1 X231.043 Y163.45 E258.05622
G1 X233.469 Y159.25 E258.2982
G1 X231.043 Y155.05 E258.54018
G1 X226.194 Y155.05 E258.7821
G1 X223.769 Y159.25 E259.02406
G0 F3000 X223.869 Y159.423
G0 X223.436 Y159.673
G0 X223.267 Y147.25
G0 X223.769 Y147.25
G1 F1500 X226.194 Y151.45 E259.26602
G1 X231.043 Y151.45 E259.50794
G1 X233.469 Y147.25 E259.74992
G1 X231.043 Y143.05 E259.9919
G1 X226.194 Y143.05 E260.23382
G1 X223.769 Y147.25 E260.47578
G0 F3000 X223.869 Y147.423
G0 X223.436 Y147.673
G0 X219.293 Y151.884
G0 X213.943 Y151.884
G0 X211.267 Y147.25
G0 X211.769 Y147.25
G1 F1500 X214.194 Y151.45 E260.71773
G1 X219.043 Y151.45 E260.95965
G1 X221.469 Y147.25 E261.20164
G1 X219.043 Y143.05 E261.44362
G1 X214.194 Y143.05 E261.68554
G1 X211.769 Y147.25 E261.92749
G0 F3000 X211.869 Y147.423
G0 X211.436 Y147.673
G0 X207.293 Y151.884
G0 X201.943 Y151.884
G0 X199.267 Y147.25
G0 X199.769 Y147.25
G1 F1500 X202.194 Y151.45 E262.16945
G1 X207.043 Y151.45 E262.41137
